; generated by PrusaSlicer 2.8.0 on 2024-09-19 at 14:42:30 UTC

; 

; external perimeters extrusion width = 0.45mm
; perimeters extrusion width = 0.45mm
; infill extrusion width = 0.45mm
; solid infill extrusion width = 0.45mm
; top infill extrusion width = 0.40mm
; first layer extrusion width = 0.70mm

M190 S60 ; set bed temperature and wait for it to be reached
M104 S210 ; set temperature
;TYPE:Custom
G28 ; home all axes
G29 ; mesh autolevel

; previous custom startup
;G28 ; home all axis
;G29 ; mesh autolevel
;G92 E0 ;Reset Extruder
;G1 X20 Y20 Z0.3 F5000.0 ;Move to start position
;G1 X20 Y200.0 Z0.3 F1500.0 E15 ;Draw the first line
;G92 E0 ;Reset Extruder
;G1 Z2.0 F3000 ;Move Z Axis up
M109 S210 ; set temperature and wait for it to be reached
G21 ; set units to millimeters
G90 ; use absolute coordinates
M82 ; use absolute distances for extrusion
G92 E0
; Filament gcode
M107
;LAYER_CHANGE
;Z:0.35
;HEIGHT:0.35
G1 E-1 F2400
G1 Z.35 F7800
G1 X148.484 Y148.213
G1 E0 F2400
;TYPE:Skirt/Brim
;WIDTH:0.7
G1 F1800
G1 X150.086 Y146.709 E.19981
G1 X152.052 Y145.083 E.4318
G1 X153.83 Y143.791 E.63165
G1 X155.983 Y142.424 E.86355
G1 X157.909 Y141.366 E1.06336
G1 X160.217 Y140.28 E1.2953
G1 X162.261 Y139.47 E1.49522
G1 X164.687 Y138.682 E1.72716
G1 X166.815 Y138.136 E1.92693
G1 X169.321 Y137.658 E2.15891
G1 X171.501 Y137.382 E2.35872
G1 X174.047 Y137.222 E2.59068
G1 X176.245 Y137.222 E2.79054
G1 X178.791 Y137.382 E3.0225
G1 X180.971 Y137.658 E3.22231
G1 X183.477 Y138.136 E3.45429
G1 X185.605 Y138.682 E3.65406
G1 X188.031 Y139.47 E3.886
G1 X190.075 Y140.28 E4.08592
G1 X192.652 Y141.514 E4.34573
G1 X194.309 Y142.424 E4.51763
G1 X196.462 Y143.791 E4.74953
G1 X198.24 Y145.083 E4.94938
G1 X200.206 Y146.709 E5.18137
G1 X201.808 Y148.213 E5.38118
G1 X203.554 Y150.073 E5.61315
G1 X204.955 Y151.766 E5.81297
G1 X206.454 Y153.83 E6.04492
G1 X207.632 Y155.685 E6.24473
G1 X208.861 Y157.921 E6.47674
G1 X209.796 Y159.909 E6.6765
G1 X210.735 Y162.281 E6.90847
G1 X211.414 Y164.371 E7.10829
G1 X212.049 Y166.842 E7.34028
G1 X212.307 Y168.194 E7.46544
G1 X212.667 Y172 E7.81306
G1 X212.667 Y178 E8.35864
G1 X212.307 Y181.806 E8.70626
G1 X212.049 Y183.158 E8.83142
G1 X211.414 Y185.629 E9.06341
G1 X210.735 Y187.719 E9.26323
G1 X209.796 Y190.091 E9.4952
G1 X208.992 Y191.801 E9.66702
G1 X207.632 Y194.315 E9.92692
G1 X206.454 Y196.17 E10.12673
G1 X204.955 Y198.234 E10.35868
G1 X203.554 Y199.927 E10.5585
G1 X201.808 Y201.787 E10.79047
G1 X200.206 Y203.291 E10.99028
G1 X198.24 Y204.917 E11.22227
G1 X196.462 Y206.209 E11.42212
G1 X194.309 Y207.576 E11.65402
G1 X192.383 Y208.634 E11.85383
G1 X190.075 Y209.721 E12.08581
G1 X188.031 Y210.53 E12.2857
G1 X185.605 Y211.318 E12.51764
G1 X183.477 Y211.864 E12.71741
G1 X180.971 Y212.342 E12.94939
G1 X178.791 Y212.618 E13.1492
G1 X176.245 Y212.778 E13.38116
G1 X174.047 Y212.778 E13.58102
G1 X171.501 Y212.618 E13.81298
G1 X169.321 Y212.342 E14.01279
G1 X166.815 Y211.864 E14.24477
G1 X164.687 Y211.318 E14.44454
G1 X162.261 Y210.53 E14.67648
G1 X160.217 Y209.721 E14.87637
G1 X157.909 Y208.634 E15.10835
G1 X155.983 Y207.576 E15.30816
G1 X153.83 Y206.209 E15.54006
G1 X152.052 Y204.917 E15.73991
G1 X150.086 Y203.291 E15.9719
G1 X148.484 Y201.787 E16.17171
G1 X146.738 Y199.927 E16.40368
G1 X145.533 Y198.471 E16.57553
G1 X143.838 Y196.17 E16.8354
G1 X142.66 Y194.315 E17.03521
G1 X141.431 Y192.079 E17.26722
G1 X140.496 Y190.091 E17.46698
G1 X139.557 Y187.719 E17.69895
G1 X138.877 Y185.629 E17.8988
G1 X138.243 Y183.158 E18.13076
G1 X137.831 Y181 E18.33053
G1 X137.512 Y178.469 E18.56249
G1 X137.374 Y176.275 E18.76238
G1 X137.374 Y173.725 E18.99425
G1 X137.512 Y171.531 E19.19414
G1 X137.831 Y169.001 E19.42601
G1 X138.185 Y167.144 E19.59791
G1 X138.877 Y164.371 E19.85779
G1 X139.557 Y162.281 E20.05764
G1 X140.496 Y159.909 E20.28961
G1 X141.431 Y157.921 E20.48937
G1 X142.66 Y155.685 E20.72138
G1 X143.673 Y154.09 E20.89319
G1 X145.337 Y151.766 E21.15309
G1 X146.738 Y150.073 E21.35291
G1 X148.443 Y148.257 E21.57941
G1 E20.57941 F2400
G92 E0
G92 E0
G1 X181.54 Y169.775 F7800
G1 E1 F2400
;TYPE:Perimeter
;WIDTH:0.7
G1 F1800
G1 X181.483 Y169.775 E1.00518
G1 X181.044 Y169.273 E1.06582
G1 X180.28 Y168.579 E1.15967
G1 X179.435 Y167.986 E1.25354
G1 X178.522 Y167.503 E1.34746
G1 X177.556 Y167.139 E1.44133
G1 X176.551 Y166.899 E1.53528
G1 X175.503 Y166.787 E1.63112
G1 X174.427 Y166.813 E1.72899
G1 X173.471 Y166.951 E1.81682
G1 X172.475 Y167.224 E1.91073
G1 X171.522 Y167.62 E2.00457
G1 X170.625 Y168.133 E2.09853
G1 X169.8 Y168.754 E2.19242
G1 X169.059 Y169.473 E2.2863
G1 X168.415 Y170.279 E2.38011
G1 X167.876 Y171.16 E2.47402
G1 X167.452 Y172.102 E2.56795
G1 X167.174 Y173.004 E2.65378
G1 X166.973 Y174.106 E2.75564
G1 X166.926 Y175.137 E2.84949
G1 X167.008 Y176.167 E2.94344
G1 X167.218 Y177.177 E3.03724
G1 X167.553 Y178.154 E3.13116
G1 X168.008 Y179.081 E3.22506
G1 X168.576 Y179.943 E3.31893
G1 X169.248 Y180.727 E3.41282
G1 X170.012 Y181.421 E3.50667
G1 X170.857 Y182.014 E3.60054
G1 X171.77 Y182.497 E3.69446
G1 X172.736 Y182.861 E3.78833
G1 X173.74 Y183.101 E3.8822
G1 X174.767 Y183.213 E3.97614
G1 X175.799 Y183.196 E4.06999
G1 X176.821 Y183.049 E4.16388
G1 X177.817 Y182.776 E4.25779
G1 X178.77 Y182.38 E4.35163
G1 X179.667 Y181.867 E4.44559
G1 X180.492 Y181.246 E4.53948
G1 X181.044 Y180.727 E4.60837
G1 X181.483 Y180.225 E4.66901
G1 X189.473 Y180.225 E5.39554
G1 X189.344 Y180.622 E5.4335
G1 X188.528 Y182.357 E5.60784
G1 X187.5 Y183.976 E5.78222
G1 X186.278 Y185.454 E5.9566
G1 X184.88 Y186.766 E6.13093
G1 X183.329 Y187.894 E6.30532
G1 X181.648 Y188.818 E6.47974
G1 X179.865 Y189.524 E6.65411
G1 X178.007 Y190 E6.82851
G1 X176.105 Y190.241 E7.00284
G1 X174.187 Y190.241 E7.17724
G1 X172.284 Y190 E7.35166
G1 X170.427 Y189.524 E7.52598
G1 X168.644 Y188.818 E7.70035
G1 X166.963 Y187.894 E7.87477
G1 X165.412 Y186.766 E8.04916
G1 X164.014 Y185.454 E8.22349
G1 X162.791 Y183.976 E8.39793
G1 X161.764 Y182.357 E8.57227
G1 X160.947 Y180.622 E8.74665
G1 X160.355 Y178.798 E8.92102
G1 X159.995 Y176.914 E9.09543
G1 X159.875 Y175 E9.26981
G1 X159.995 Y173.086 E9.44419
G1 X160.355 Y171.202 E9.6186
G1 X160.947 Y169.378 E9.79297
G1 X161.764 Y167.643 E9.96735
G1 X162.791 Y166.024 E10.14169
G1 X164.014 Y164.546 E10.31613
G1 X165.412 Y163.234 E10.49046
G1 X166.963 Y162.106 E10.66485
G1 X168.644 Y161.182 E10.83927
G1 X170.427 Y160.476 E11.01364
G1 X172.284 Y160 E11.18796
G1 X174.187 Y159.759 E11.36238
G1 X176.105 Y159.759 E11.53678
G1 X178.007 Y160 E11.71111
G1 X179.865 Y160.476 E11.88551
G1 X181.648 Y161.182 E12.05988
G1 X183.329 Y162.106 E12.2343
G1 X184.88 Y163.234 E12.40869
G1 X186.278 Y164.546 E12.58302
G1 X187.5 Y166.024 E12.7574
G1 X188.528 Y167.643 E12.93178
G1 X189.337 Y169.362 E13.10453
G1 X189.473 Y169.775 E13.14407
G1 X181.6 Y169.775 E13.85996
G1 X181.6 Y169.775 F7800
G1 X181.208 Y170.4
G1 F1800
G1 X181.189 Y170.4 E13.86169
G1 X180.617 Y169.728 E13.94193
G1 X179.913 Y169.084 E14.02869
G1 X179.134 Y168.533 E14.11545
G1 X178.292 Y168.084 E14.20222
G1 X177.4 Y167.745 E14.28899
G1 X176.473 Y167.519 E14.37575
G1 X175.509 Y167.412 E14.46394
G1 X174.505 Y167.433 E14.55525
G1 X173.626 Y167.556 E14.63596
G1 X172.705 Y167.805 E14.72271
G1 X171.823 Y168.168 E14.80944
G1 X170.993 Y168.638 E14.89617
G1 X170.228 Y169.209 E14.98297
G1 X169.541 Y169.871 E15.06972
G1 X168.942 Y170.614 E15.1565
G1 X168.442 Y171.426 E15.24321
G1 X168.047 Y172.295 E15.33001
G1 X167.787 Y173.127 E15.40927
G1 X167.597 Y174.145 E15.50343
G1 X167.549 Y175.098 E15.5902
G1 X167.621 Y176.049 E15.67692
G1 X167.812 Y176.984 E15.76369
G1 X168.119 Y177.888 E15.8505
G1 X168.536 Y178.746 E15.93724
G1 X169.058 Y179.545 E16.02402
G1 X169.675 Y180.272 E16.11072
G1 X170.379 Y180.916 E16.19748
G1 X171.158 Y181.467 E16.28424
G1 X172 Y181.916 E16.37101
G1 X172.892 Y182.255 E16.45778
G1 X173.819 Y182.481 E16.54454
G1 X174.767 Y182.588 E16.63129
G1 X175.721 Y182.576 E16.71804
G1 X176.666 Y182.444 E16.8048
G1 X177.587 Y182.195 E16.89155
G1 X178.469 Y181.832 E16.97828
G1 X179.299 Y181.362 E17.06501
G1 X180.138 Y180.722 E17.16096
G1 X180.751 Y180.129 E17.23851
G1 X181.189 Y179.6 E17.30096
G1 X190.334 Y179.6 E18.13251
G1 X189.927 Y180.852 E18.25222
G1 X189.077 Y182.658 E18.43372
G1 X188.007 Y184.344 E18.61529
G1 X186.734 Y185.882 E18.79683
G1 X185.279 Y187.249 E18.97836
G1 X183.664 Y188.422 E19.15986
G1 X181.915 Y189.384 E19.34137
G1 X180.058 Y190.119 E19.52297
G1 X178.125 Y190.615 E19.70443
G1 X176.144 Y190.866 E19.886
G1 X174.148 Y190.866 E20.0675
G1 X172.167 Y190.615 E20.24907
G1 X170.233 Y190.119 E20.43062
G1 X168.377 Y189.384 E20.61214
G1 X166.628 Y188.422 E20.79365
G1 X165.013 Y187.249 E20.97515
G1 X163.557 Y185.882 E21.15675
G1 X162.285 Y184.344 E21.33823
G1 X161.215 Y182.658 E21.5198
G1 X160.365 Y180.852 E21.7013
G1 X159.748 Y178.953 E21.88286
G1 X159.374 Y176.992 E22.06439
G1 X159.249 Y175 E22.24588
G1 X159.374 Y173.008 E22.42737
G1 X159.748 Y171.047 E22.6089
G1 X160.365 Y169.148 E22.79046
G1 X161.215 Y167.342 E22.97196
G1 X162.285 Y165.656 E23.15353
G1 X163.557 Y164.118 E23.33501
G1 X165.013 Y162.751 E23.51661
G1 X166.628 Y161.578 E23.69811
G1 X168.377 Y160.616 E23.87962
G1 X170.233 Y159.881 E24.06114
G1 X172.167 Y159.385 E24.24269
G1 X174.148 Y159.134 E24.42426
G1 X176.144 Y159.134 E24.60576
G1 X178.125 Y159.385 E24.78733
G1 X180.058 Y159.881 E24.96879
G1 X181.915 Y160.616 E25.15039
G1 X183.664 Y161.578 E25.3319
G1 X185.279 Y162.751 E25.5134
G1 X186.734 Y164.118 E25.69493
G1 X188.007 Y165.656 E25.87647
G1 X189.077 Y167.342 E26.05804
G1 X189.927 Y169.148 E26.23954
G1 X190.334 Y170.4 E26.35925
G1 X181.268 Y170.4 E27.18362
G1 X181.268 Y170.4 F7800
G1 X180.87 Y171.025
G1 F1800
G1 X180.753 Y170.854 E27.20246
G1 X180.189 Y170.184 E27.28209
G1 X179.545 Y169.59 E27.36175
G1 X178.833 Y169.081 E27.44133
G1 X178.062 Y168.665 E27.52099
G1 X177.245 Y168.35 E27.60061
G1 X176.395 Y168.139 E27.68025
G1 X175.515 Y168.037 E27.7608
G1 X174.584 Y168.053 E27.84547
G1 X173.781 Y168.161 E27.91914
G1 X172.935 Y168.386 E27.99874
G1 X172.124 Y168.716 E28.07836
G1 X171.36 Y169.144 E28.15799
G1 X170.656 Y169.665 E28.23763
G1 X170.022 Y170.269 E28.31725
G1 X169.47 Y170.949 E28.39689
G1 X169.007 Y171.692 E28.47649
G1 X168.641 Y172.488 E28.55615
G1 X168.4 Y173.251 E28.62891
G1 X168.22 Y174.184 E28.71531
G1 X168.173 Y175.059 E28.79499
G1 X168.235 Y175.932 E28.87457
G1 X168.407 Y176.791 E28.95423
G1 X168.684 Y177.622 E29.03388
G1 X169.064 Y178.411 E29.11351
G1 X169.539 Y179.146 E29.19309
G1 X170.103 Y179.816 E29.27272
G1 X170.746 Y180.41 E29.35232
G1 X171.459 Y180.919 E29.43198
G1 X172.23 Y181.335 E29.51164
G1 X173.047 Y181.65 E29.59126
G1 X173.897 Y181.861 E29.6709
G1 X174.767 Y181.963 E29.75055
G1 X175.643 Y181.956 E29.83021
G1 X176.51 Y181.839 E29.90976
G1 X177.357 Y181.614 E29.98945
G1 X178.168 Y181.284 E30.06907
G1 X178.932 Y180.856 E30.1487
G1 X179.71 Y180.266 E30.23748
G1 X180.269 Y179.731 E30.30784
G1 X180.87 Y178.975 E30.39566
G1 X191.176 Y178.975 E31.33278
G1 X191.151 Y179.103 E31.34464
G1 X190.509 Y181.083 E31.53391
G1 X189.625 Y182.96 E31.72257
G1 X188.513 Y184.712 E31.91126
G1 X187.191 Y186.311 E32.09991
G1 X185.678 Y187.731 E32.28859
G1 X183.999 Y188.951 E32.47731
G1 X182.181 Y189.951 E32.66598
G1 X180.252 Y190.714 E32.85461
G1 X178.242 Y191.231 E33.04333
G1 X176.183 Y191.491 E33.23204
G1 X174.108 Y191.491 E33.42072
G1 X172.05 Y191.231 E33.60934
G1 X170.04 Y190.714 E33.79806
G1 X168.111 Y189.951 E33.98669
G1 X166.292 Y188.951 E34.17544
G1 X164.614 Y187.731 E34.36408
G1 X163.101 Y186.311 E34.55276
G1 X161.778 Y184.712 E34.74147
G1 X160.667 Y182.96 E34.93011
G1 X159.783 Y181.083 E35.11877
G1 X159.142 Y179.109 E35.30749
G1 X158.753 Y177.071 E35.49615
G1 X158.623 Y175 E35.68484
G1 X158.753 Y172.929 E35.87353
G1 X159.142 Y170.891 E36.06219
G1 X159.783 Y168.917 E36.25091
G1 X160.667 Y167.04 E36.43957
G1 X161.778 Y165.288 E36.62821
G1 X163.101 Y163.689 E36.81692
G1 X164.614 Y162.269 E37.0056
G1 X166.292 Y161.049 E37.19424
G1 X168.111 Y160.049 E37.38299
G1 X170.04 Y159.286 E37.57162
G1 X172.05 Y158.769 E37.76034
G1 X174.108 Y158.509 E37.94896
G1 X176.183 Y158.509 E38.13764
G1 X178.242 Y158.769 E38.32635
G1 X180.252 Y159.286 E38.51507
G1 X182.181 Y160.049 E38.7037
G1 X183.999 Y161.049 E38.89237
G1 X185.678 Y162.269 E39.08109
G1 X187.191 Y163.689 E39.26977
G1 X188.513 Y165.288 E39.45842
G1 X189.625 Y167.04 E39.64711
G1 X190.509 Y168.917 E39.83577
G1 X191.148 Y170.884 E40.02383
G1 X191.176 Y171.025 E40.0369
G1 X180.93 Y171.025 E40.96856
G1 X180.93 Y171.025 F7800
G1 X180.527 Y171.65
;TYPE:External perimeter
G1 F1800
G1 X180.271 Y171.252 E41.01159
G1 X179.761 Y170.639 E41.0841
G1 X179.178 Y170.095 E41.15661
G1 X178.532 Y169.628 E41.22909
G1 X177.832 Y169.246 E41.3016
G1 X177.089 Y168.955 E41.37416
G1 X176.316 Y168.759 E41.44667
G1 X175.522 Y168.662 E41.5194
G1 X174.662 Y168.673 E41.59761
G1 X173.937 Y168.767 E41.66409
G1 X173.165 Y168.967 E41.73661
G1 X172.425 Y169.263 E41.80908
G1 X171.727 Y169.649 E41.88161
G1 X171.084 Y170.12 E41.95409
G1 X170.504 Y170.668 E42.02665
G1 X169.998 Y171.284 E42.09914
G1 X169.572 Y171.958 E42.17164
G1 X169.235 Y172.681 E42.24417
G1 X169.012 Y173.374 E42.31037
G1 X168.844 Y174.223 E42.38907
G1 X168.796 Y175.02 E42.46167
G1 X168.849 Y175.815 E42.53412
G1 X169.001 Y176.598 E42.60665
G1 X169.25 Y177.356 E42.6792
G1 X169.591 Y178.076 E42.75164
G1 X170.021 Y178.748 E42.82418
G1 X170.531 Y179.361 E42.89669
G1 X171.114 Y179.905 E42.9692
G1 X171.76 Y180.372 E43.04168
G1 X172.46 Y180.754 E43.11419
G1 X173.203 Y181.045 E43.18675
G1 X173.975 Y181.241 E43.25917
G1 X174.767 Y181.338 E43.33172
G1 X175.564 Y181.336 E43.40419
G1 X176.355 Y181.233 E43.47672
G1 X177.127 Y181.033 E43.54924
G1 X177.867 Y180.737 E43.62171
G1 X178.565 Y180.351 E43.69424
G1 X179.282 Y179.811 E43.77586
G1 X179.788 Y179.332 E43.83922
G1 X180.271 Y178.748 E43.90813
G1 X180.527 Y178.35 E43.95116
G1 X191.931 Y178.35 E44.98812
G1 X191.765 Y179.22 E45.06866
G1 X191.091 Y181.313 E45.2686
G1 X190.174 Y183.262 E45.46446
G1 X189.02 Y185.08 E45.66026
G1 X187.647 Y186.74 E45.85614
G1 X186.077 Y188.214 E46.05196
G1 X184.335 Y189.48 E46.24777
G1 X182.448 Y190.517 E46.44356
G1 X180.445 Y191.31 E46.63945
G1 X178.359 Y191.846 E46.83529
G1 X176.223 Y192.115 E47.03105
G1 X174.069 Y192.115 E47.22691
G1 X171.932 Y191.846 E47.42276
G1 X169.847 Y191.31 E47.61851
G1 X167.844 Y190.517 E47.8144
G1 X165.957 Y189.48 E48.01019
G1 X164.215 Y188.214 E48.206
G1 X162.645 Y186.74 E48.40182
G1 X161.272 Y185.08 E48.5977
G1 X160.118 Y183.262 E48.7935
G1 X159.201 Y181.313 E48.98936
G1 X158.535 Y179.265 E49.18518
G1 X158.132 Y177.149 E49.38105
G1 X157.997 Y175 E49.57684
G1 X158.132 Y172.851 E49.77263
G1 X158.535 Y170.735 E49.9685
G1 X159.201 Y168.687 E50.16432
G1 X160.118 Y166.738 E50.36018
G1 X161.272 Y164.92 E50.55598
G1 X162.645 Y163.26 E50.75186
G1 X164.215 Y161.786 E50.94768
G1 X165.957 Y160.52 E51.14349
G1 X167.844 Y159.483 E51.33928
G1 X169.847 Y158.69 E51.53517
G1 X171.932 Y158.154 E51.73092
G1 X174.069 Y157.885 E51.92677
G1 X176.223 Y157.885 E52.12263
G1 X178.359 Y158.154 E52.31839
G1 X180.445 Y158.69 E52.51423
G1 X182.448 Y159.483 E52.71012
G1 X184.335 Y160.52 E52.90591
G1 X186.077 Y161.786 E53.10172
G1 X187.647 Y163.26 E53.29754
G1 X189.02 Y164.92 E53.49342
G1 X190.174 Y166.738 E53.68922
G1 X191.091 Y168.687 E53.88508
G1 X191.756 Y170.735 E54.08087
G1 X191.931 Y171.65 E54.16558
G1 X180.587 Y171.65 E55.19708
G1 X180.333 Y171.341 F7800
G1 E54.19708 F2400
G92 E0
G1 X188.125 Y180.412 F7800
G1 E1 F2400
;TYPE:Solid infill
;WIDTH:0.704567
G1 F1800
G1 X188.669 Y180.956 E1.07047
G1 X188.384 Y181.562 E1.13181
G1 X187.516 Y180.693 E1.24431
G1 X186.625 Y180.693 E1.32592
G1 X188.096 Y182.164 E1.51646
G1 X187.75 Y182.708 E1.57551
G1 X185.735 Y180.693 E1.83652
G1 X184.845 Y180.693 E1.91804
G1 X187.404 Y183.253 E2.24958
G1 X187.049 Y183.787 E2.30831
G1 X183.955 Y180.693 E2.70909
G1 X183.065 Y180.693 E2.79061
G1 X186.645 Y184.274 E3.25441
G1 X186.242 Y184.761 E3.31231
G1 X182.174 Y180.693 E3.83925
G1 X181.7 Y180.693 E3.88267
G1 X181.504 Y180.913 E3.90966
G1 X185.826 Y185.235 E4.4695
G1 X185.367 Y185.666 E4.52717
G1 X181.058 Y181.357 E5.08533
G1 X180.586 Y181.776 E5.14314
