; generated by PrusaSlicer 2.9.0 on 2025-01-26 at 22:47:58 UTC

; 

; external perimeters extrusion width = 0.42mm
; perimeters extrusion width = 0.44mm
; infill extrusion width = 0.44mm
; solid infill extrusion width = 0.44mm
; top infill extrusion width = 0.40mm
; first layer extrusion width = 0.42mm

M201 X500 Y500 Z100 E1000 ; sets maximum accelerations, mm/sec^2
M203 X300 Y300 Z5 E60 ; sets maximum feedrates, mm / sec
M204 S500 T1000 ; sets acceleration (S) and retract acceleration (R), mm/sec^2
M205 X8.00 Y8.00 Z0.40 E5.00 ; sets the jerk limits, mm/sec
M205 S0 T0 ; sets the minimum extruding and travel feed rate, mm/sec

; printing object headboard-spacer.stl id:0 copy 0
; stop printing object headboard-spacer.stl id:0 copy 0

;TYPE:Custom
G90 ; use absolute coordinates
M83 ; extruder relative mode
M104 S150 ; set temporary nozzle temp to prevent oozing during homing and auto bed leveling
M140 S60 ; set final bed temp
M190 S60 ; wait for bed temp to stabilize
G28 ; home all axis
G29 ; auto bed levelling
G1 Z50 F240
G1 X2.0 Y10 F3000
M104 S210 ; set final nozzle temp
M109 S210 ; wait for nozzle temp to stabilize
G1 Z0.28 F240
G92 E0
G1 X2.0 Y140 E10 F1500 ; prime the nozzle
G1 X2.3 Y140 F5000
G92 E0
G1 X2.3 Y10 E10 F1200 ; prime the nozzle
G92 E0
G21 ; set units to millimeters
G90 ; use absolute coordinates
M83 ; use relative distances for extrusion
; Filament gcode
M107
;LAYER_CHANGE
;Z:0.2
;HEIGHT:0.2
G1 E-1 F3600
G1 Z.2 F9000
G1 X146.789 Y164.309
G1 Z.2
G1 E1 F2400
M204 S500
;TYPE:Skirt/Brim
;WIDTH:0.42
G1 F1200
G1 X148.5 Y163.811 E.05587
G1 X211.5 Y163.811 E1.97532
G1 X213.035 Y164.205 E.04969
G1 X214.191 Y165.289 E.04969
G1 X214.689 Y167 E.05587
G1 X214.689 Y193 E.81521
G1 X214.295 Y194.535 E.04969
G1 X213.211 Y195.691 E.04969
G1 X211.5 Y196.189 E.05587
G1 X148.5 Y196.189 E1.97532
G1 X146.965 Y195.795 E.04969
G1 X145.809 Y194.711 E.04969
G1 X145.311 Y193 E.05587
G1 X145.311 Y167 E.81521
G1 X145.705 Y165.465 E.04969
G1 X146.748 Y164.353 E.0478
G1 E-.7 F3600
;WIPE_START
G1 F7200
G1 X146.789 Y164.309 E-.02857
G1 X147.338 Y164.149 E-.27143
;WIPE_END
; printing object headboard-spacer.stl id:0 copy 0
G1 X149.564 Y168.064 F9000
G1 E1 F2400
;TYPE:Perimeter
;WIDTH:0.419999
G1 F1200
G1 X186.379 Y168.063 E1.15431
;WIDTH:0.417302
G1 X207.622 Y168.063 E.66129
;WIDTH:0.419999
G1 X210.436 Y168.064 E.08823
G1 X210.436 Y169.06 E.03123
G1 X208.56 Y170.941 E.0833
G1 X208.564 Y169.381 E.04891
G1 X208.533 Y169.139 E.00765
G1 X208.255 Y168.68 E.01683
G1 X207.622 Y168.437 E.02126
;WIDTH:0.417302
G1 X186.379 Y168.437 E.66129
;WIDTH:0.425853
G1 X186.215 Y168.447 E.00523
G1 X185.813 Y168.624 E.01399
;WIDTH:0.419999
G1 X185.508 Y169.016 E.01557
G1 X185.436 Y169.379 E.0116
G1 X185.436 Y190.621 E.66603
G1 X185.508 Y190.984 E.0116
G1 X185.813 Y191.376 E.01557
G1 X186.379 Y191.563 E.01869
;WIDTH:0.417302
G1 X207.622 Y191.563 E.66129
;WIDTH:0.425853
G1 X207.785 Y191.553 E.0052
G1 X208.234 Y191.338 E.01585
;WIDTH:0.419999
G1 X208.522 Y190.899 E.01646
G1 X208.564 Y190.619 E.00888
G1 X208.561 Y189.272 E.04223
G1 X210.436 Y191.153 E.08327
G1 X210.436 Y191.382 E.00718
G1 X210.436 Y191.936 E.01737
G1 X207.622 Y191.937 E.08823
;WIDTH:0.417302
G1 X186.379 Y191.937 E.66129
;WIDTH:0.419999
G1 X149.564 Y191.936 E1.15431
G1 X149.564 Y168.124 E.74661
G1 X149.564 Y168.124 F9000
G1 X149.187 Y167.687
G1 F1200
G1 X210.813 Y167.687 E1.93224
G1 X210.813 Y169.216 E.04794
G1 X208.43 Y171.605 E.1058
G1 X208.16 Y171.915 E.01289
G1 X208.182 Y171.502 E.01297
G1 X208.187 Y169.38 E.06653
G1 X208.169 Y169.235 E.00458
G1 X208.001 Y168.959 E.01013
G1 X207.622 Y168.813 E.01273
G1 X186.379 Y168.813 E.66606
G1 X186.039 Y168.926 E.01123
G1 X185.856 Y169.161 E.00934
G1 X185.813 Y169.379 E.00697
G1 X185.813 Y190.621 E.66603
G1 X185.856 Y190.839 E.00697
G1 X186.039 Y191.074 E.00934
G1 X186.379 Y191.187 E.01123
G1 X207.719 Y191.179 E.6691
G1 X207.989 Y191.051 E.00937
G1 X208.162 Y190.788 E.00987
G1 X208.187 Y190.62 E.00533
G1 X208.182 Y188.604 E.06321
G1 X208.153 Y188.291 E.00986
G1 X208.35 Y188.528 E.00966
G1 X210.813 Y190.997 E.10935
G1 X210.813 Y191.382 E.01207
G1 X210.813 Y192.313 E.02919
G1 X149.187 Y192.313 E1.93224
G1 X149.187 Y167.747 E.77025
G1 X148.81 Y167.31 F9000
;TYPE:External perimeter
G1 F1200
G1 X211.19 Y167.31 E1.95588
G1 X211.19 Y169.372 E.06465
G1 X208.605 Y171.966 E.11482
G1 X208.051 Y172.643 E.02743
G1 X207.724 Y172.961 E.0143
G1 X207.71 Y172.511 E.01412
G1 X207.776 Y172.012 E.01578
G1 X207.805 Y171.501 E.01605
G1 X207.81 Y169.379 E.06653
G1 X207.748 Y169.239 E.0048
G1 X207.622 Y169.19 E.00424
G1 X186.379 Y169.19 E.66606
G1 X186.265 Y169.228 E.00377
G1 X186.19 Y169.379 E.00529
G1 X186.19 Y190.621 E.66603
G1 X186.265 Y190.772 E.00529
G1 X186.379 Y190.81 E.00377
G1 X207.622 Y190.81 E.66606
G1 X207.744 Y190.765 E.00408
G1 X207.81 Y190.621 E.00497
G1 X207.805 Y188.605 E.06321
G1 X207.711 Y187.663 E.02968
G1 X207.723 Y187.251 E.01292
G1 X208.022 Y187.535 E.01293
G1 X208.617 Y188.261 E.02943
G1 X211.19 Y190.841 E.11425
G1 X211.19 Y191.382 E.01696
G1 X211.19 Y192.69 E.04101
G1 X148.81 Y192.69 E1.95588
G1 X148.81 Y167.37 E.79389
G1 E-.7 F3600
;WIPE_START
G1 F7200
G1 X148.81 Y167.31 E-.0285
G1 X149.382 Y167.31 E-.2715
;WIPE_END
G1 X185.579 Y168.739 F9000
G1 E1 F2400
;TYPE:Solid infill
;WIDTH:0.42052
G1 F1200
G1 X185.2 Y168.36 E.01683
G1 X184.666 Y168.36 E.01677
G1 X185.234 Y168.928 E.02522
G1 X185.146 Y169.374 E.01427
G1 X184.132 Y168.36 E.04502
G1 X183.598 Y168.36 E.01677
G1 X185.146 Y169.908 E.06874
G1 X185.146 Y170.442 E.01677
G1 X183.064 Y168.36 E.09245
G1 X182.529 Y168.36 E.0168
G1 X185.146 Y170.976 E.11618
G1 X185.146 Y171.51 E.01677
G1 X181.995 Y168.36 E.13989
G1 X181.461 Y168.36 E.01677
G1 X185.146 Y172.044 E.1636
G1 X185.146 Y172.578 E.01677
G1 X180.927 Y168.36 E.18731
G1 X180.393 Y168.359 E.01677
G1 X185.146 Y173.112 E.21105
G1 X185.146 Y173.646 E.01677
G1 X179.859 Y168.359 E.23476
G1 X179.325 Y168.359 E.01677
G1 X185.146 Y174.18 E.25847
G1 X185.146 Y174.714 E.01677
G1 X178.791 Y168.359 E.28218
G1 X178.257 Y168.359 E.01677
G1 X185.146 Y175.248 E.30589
G1 X185.146 Y175.782 E.01677
G1 X177.723 Y168.359 E.3296
G1 X177.188 Y168.359 E.0168
G1 X185.146 Y176.316 E.35334
G1 X185.146 Y176.85 E.01677
G1 X176.654 Y168.359 E.37705
G1 X176.12 Y168.359 E.01677
G1 X185.146 Y177.384 E.40076
G1 X185.146 Y177.918 E.01677
G1 X175.586 Y168.359 E.42447
G1 X175.052 Y168.359 E.01677
G1 X185.146 Y178.452 E.44818
G1 X185.146 Y178.986 E.01677
G1 X174.518 Y168.358 E.47191
G1 X173.984 Y168.358 E.01677
G1 X185.146 Y179.52 E.49562
G1 X185.146 Y180.054 E.01677
G1 X173.45 Y168.358 E.51934
G1 X172.916 Y168.358 E.01677
G1 X185.146 Y180.588 E.54305
G1 X185.146 Y181.122 E.01677
G1 X172.382 Y168.358 E.56676
G1 X171.848 Y168.358 E.01677
G1 X185.146 Y181.656 E.59047
G1 X185.146 Y182.19 E.01677
G1 X171.313 Y168.358 E.6142
G1 X170.779 Y168.358 E.01677
G1 X185.146 Y182.724 E.63791
G1 X185.146 Y183.258 E.01677
G1 X170.245 Y168.358 E.66162
G1 X169.711 Y168.358 E.01677
G1 X185.146 Y183.792 E.68534
G1 X185.146 Y184.326 E.01677
G1 X169.177 Y168.358 E.70905
G1 X168.643 Y168.358 E.01677
G1 X185.146 Y184.86 E.73276
G1 X185.146 Y185.394 E.01677
G1 X168.109 Y168.357 E.75649
G1 X167.575 Y168.357 E.01677
G1 X185.146 Y185.928 E.7802
G1 X185.146 Y186.462 E.01677
G1 X167.041 Y168.357 E.80391
G1 X166.507 Y168.357 E.01677
G1 X185.146 Y186.996 E.82763
G1 X185.146 Y187.53 E.01677
G1 X165.973 Y168.357 E.85134
G1 X165.438 Y168.357 E.0168
G1 X185.146 Y188.064 E.87507
G1 X185.146 Y188.598 E.01677
G1 X164.904 Y168.357 E.89878
G1 X164.37 Y168.357 E.01677
G1 X185.146 Y189.132 E.92249
G1 X185.146 Y189.666 E.01677
G1 X163.836 Y168.357 E.9462
G1 X163.302 Y168.357 E.01677
G1 X185.146 Y190.2 E.96991
G1 X185.146 Y190.632 E.01356
G1 X185.171 Y190.76 E.00409
G1 X162.768 Y168.357 E.99476
G1 X162.234 Y168.357 E.01677
G1 X185.526 Y191.648 E1.03421
G1 X184.991 Y191.648 E.0168
G1 X161.7 Y168.356 E1.03421
G1 X161.166 Y168.356 E.01677
G1 X184.457 Y191.648 E1.03421
G1 X183.923 Y191.648 E.01677
G1 X160.632 Y168.356 E1.03421
G1 X160.098 Y168.356 E.01677
G1 X183.389 Y191.648 E1.03421
G1 X182.855 Y191.648 E.01677
G1 X159.563 Y168.356 E1.03423
G1 X159.029 Y168.356 E.01677
G1 X182.321 Y191.648 E1.03423
G1 X181.787 Y191.648 E.01677
G1 X158.495 Y168.356 E1.03423
G1 X157.961 Y168.356 E.01677
G1 X181.253 Y191.648 E1.03423
G1 X180.719 Y191.648 E.01677
G1 X157.427 Y168.356 E1.03423
G1 X156.893 Y168.356 E.01677
G1 X180.185 Y191.648 E1.03423
G1 X179.651 Y191.648 E.01677
G1 X156.359 Y168.356 E1.03423
G1 X155.825 Y168.355 E.01677
G1 X179.117 Y191.648 E1.03425
G1 X178.583 Y191.648 E.01677
G1 X155.291 Y168.355 E1.03425
G1 X154.757 Y168.355 E.01677
G1 X178.049 Y191.648 E1.03425
G1 X177.515 Y191.648 E.01677
G1 X154.222 Y168.355 E1.03428
G1 X153.688 Y168.355 E.01677
G1 X176.981 Y191.648 E1.03428
G1 X176.447 Y191.647 E.01677
G1 X153.154 Y168.355 E1.03425
G1 X152.62 Y168.355 E.01677
G1 X175.913 Y191.647 E1.03425
G1 X175.379 Y191.647 E.01677
G1 X152.086 Y168.355 E1.03425
G1 X151.552 Y168.355 E.01677
G1 X174.845 Y191.647 E1.03425
G1 X174.311 Y191.647 E.01677
G1 X151.018 Y168.355 E1.03425
G1 X150.484 Y168.355 E.01677
G1 X173.776 Y191.647 E1.03423
G1 X173.242 Y191.647 E.01677
G1 X149.95 Y168.355 E1.03423
G1 X149.854 Y168.355 E.00301
G1 X149.854 Y168.793 E.01375
G1 X172.708 Y191.647 E1.01478
G1 X172.174 Y191.647 E.01677
G1 X149.854 Y169.327 E.99107
G1 X149.854 Y169.861 E.01677
G1 X171.64 Y191.647 E.96736
G1 X171.106 Y191.647 E.01677
G1 X149.854 Y170.395 E.94365
G1 X149.854 Y170.929 E.01677
G1 X170.572 Y191.647 E.91994
G1 X170.038 Y191.647 E.01677
G1 X149.854 Y171.463 E.89623
G1 X149.854 Y171.997 E.01677
G1 X169.504 Y191.647 E.87252
G1 X168.97 Y191.647 E.01677
G1 X149.854 Y172.531 E.84881
G1 X149.854 Y173.065 E.01677
G1 X168.436 Y191.647 E.82509
G1 X167.902 Y191.647 E.01677
G1 X149.854 Y173.599 E.80138
G1 X149.854 Y174.133 E.01677
G1 X167.368 Y191.647 E.77767
G1 X166.834 Y191.647 E.01677
G1 X149.854 Y174.667 E.75396
G1 X149.854 Y175.201 E.01677
G1 X166.3 Y191.647 E.73025
G1 X165.766 Y191.647 E.01677
G1 X149.854 Y175.735 E.70654
G1 X149.854 Y176.269 E.01677
G1 X165.232 Y191.647 E.68283
G1 X164.698 Y191.647 E.01677
G1 X149.854 Y176.803 E.65912
G1 X149.854 Y177.337 E.01677
G1 X164.164 Y191.647 E.63541
G1 X163.63 Y191.647 E.01677
G1 X149.854 Y177.871 E.61169
G1 X149.854 Y178.405 E.01677
G1 X163.096 Y191.646 E.58796
G1 X162.562 Y191.646 E.01677
G1 X149.854 Y178.939 E.56425
G1 X149.854 Y179.473 E.01677
G1 X162.027 Y191.646 E.54052
G1 X161.493 Y191.646 E.01677
G1 X149.854 Y180.007 E.51681
G1 X149.854 Y180.541 E.01677
G1 X160.959 Y191.646 E.49309
G1 X160.425 Y191.646 E.01677
G1 X149.854 Y181.075 E.46938
G1 X149.854 Y181.609 E.01677
G1 X159.891 Y191.646 E.44567
G1 X159.357 Y191.646 E.01677
G1 X149.854 Y182.143 E.42196
G1 X149.854 Y182.677 E.01677
G1 X158.823 Y191.646 E.39825
G1 X158.289 Y191.646 E.01677
G1 X149.854 Y183.211 E.37454
G1 X149.854 Y183.745 E.01677
G1 X157.755 Y191.646 E.35083
G1 X157.221 Y191.646 E.01677
G1 X149.854 Y184.279 E.32712
G1 X149.854 Y184.814 E.0168
G1 X156.687 Y191.646 E.30338
G1 X156.153 Y191.646 E.01677
G1 X149.854 Y185.348 E.27967
G1 X149.854 Y185.882 E.01677
G1 X155.619 Y191.646 E.25596
G1 X155.085 Y191.646 E.01677
G1 X149.854 Y186.416 E.23225
G1 X149.854 Y186.95 E.01677
G1 X154.551 Y191.646 E.20854
G1 X154.017 Y191.646 E.01677
G1 X149.854 Y187.484 E.18483
G1 X149.854 Y188.018 E.01677
G1 X153.483 Y191.646 E.16112
G1 X152.949 Y191.646 E.01677
G1 X149.854 Y188.552 E.1374
G1 X149.854 Y189.086 E.01677
G1 X152.415 Y191.646 E.11369
G1 X151.881 Y191.646 E.01677
G1 X149.854 Y189.62 E.08998
G1 X149.854 Y190.154 E.01677
G1 X151.347 Y191.646 E.06627
G1 X150.813 Y191.646 E.01677
G1 X149.854 Y190.688 E.04256
G1 X149.854 Y191.222 E.01677
G1 X150.448 Y191.815 E.02635
G1 E-.7 F3600
;WIPE_START
G1 F7200
G1 X150.001 Y191.368 E-.3
;WIPE_END
G1 X210.315 Y191.454 F9000
G1 E1 F2400
;WIDTH:0.442038
G1 F1200
G1 X208.853 Y189.992 E.06862
G1 X208.854 Y190.557 E.01875
G1 X209.942 Y191.645 E.05106
G1 X209.376 Y191.643 E.01878
G1 X208.77 Y191.038 E.02842
G1 X208.546 Y191.378 E.01351
G1 X208.98 Y191.812 E.02037
G1 E-.7 F3600
;WIPE_START
G1 F7200
G1 X208.546 Y191.378 E-.29154
G1 X208.556 Y191.363 E-.00846
;WIPE_END
G1 X209.453 Y168.185 F9000
G1 E1 F2400
;WIDTH:0.467148
G1 F1200
G1 X210.146 Y168.877 E.03455
G1 X210.146 Y168.94 E.00222
G1 X209.877 Y169.209 E.01342
G1 X209.023 Y168.354 E.04263
G1 X208.422 Y168.354 E.0212
G1 X209.578 Y169.509 E.05764
G1 X209.278 Y169.81 E.01499
G1 X208.855 Y169.386 E.02113
G1 X208.853 Y169.985 E.02113
G1 X209.099 Y170.23 E.01225
M106 S255
;LAYER_CHANGE
;Z:0.4
;HEIGHT:0.2
;BEFORE_LAYER_CHANGE
G92 E0
;0.4


G1 E-.7 F3600
;WIPE_START
G1 F7200
G1 X208.853 Y169.985 E-.16492
G1 X208.854 Y169.701 E-.13508
;WIPE_END
G1 Z.4 F9000
;AFTER_LAYER_CHANGE
;0.4
M104 S205 ; set temperature
; stop printing object headboard-spacer.stl id:0 copy 0
G1 X214.689 Y170.23
G1 E1 F2400
;TYPE:Skirt/Brim
;WIDTH:0.42
G1 X214.689 Y193 E.71394
G1 X214.295 Y194.535 E.04969
G1 X213.211 Y195.691 E.04969
G1 X211.5 Y196.189 E.05587
G1 X148.5 Y196.189 E1.97532
G1 X146.965 Y195.795 E.04969
G1 X145.809 Y194.711 E.04969
G1 X145.311 Y193 E.05587
G1 X145.311 Y167 E.81521
G1 X145.705 Y165.465 E.04969
G1 X146.789 Y164.309 E.04969
G1 X148.5 Y163.811 E.05587
G1 X211.5 Y163.811 E1.97532
G1 X213.035 Y164.205 E.04969
G1 X214.191 Y165.289 E.04969
G1 X214.689 Y167 E.05587
G1 X214.689 Y170.17 E.09939
G1 E-.7 F3600
;WIPE_START
G1 F7200
G1 X214.689 Y170.23 E-.0285
G1 X214.689 Y170.802 E-.2715
;WIPE_END
; printing object headboard-spacer.stl id:0 copy 0
G1 X210.506 Y169.088 F9000
G1 E1 F2400
;TYPE:Perimeter
;WIDTH:0.439999
G1 X208.494 Y171.1 E.09395
G1 X208.494 Y169.479 E.05352
G1 X208.453 Y169.197 E.00941
G1 X208.156 Y168.742 E.01794
;WIDTH:0.468651
G1 X207.839 Y168.609 E.01217
;WIDTH:0.497302
G1 X207.521 Y168.477 E.01301
G1 X186.479 Y168.477 E.79501
;WIDTH:0.506611
G1 X186.305 Y168.488 E.00672
G1 X186.1 Y168.594 E.0089
;WIDTH:0.473305
G1 X185.895 Y168.7 E.00826
;WIDTH:0.439999
G1 X185.581 Y169.104 E.01689
G1 X185.506 Y169.479 E.01263
G1 X185.506 Y190.521 E.69475
G1 X185.581 Y190.896 E.01263
G1 X185.895 Y191.3 E.01689
;WIDTH:0.468651
G1 X186.187 Y191.411 E.01106
;WIDTH:0.497302
G1 X186.479 Y191.523 E.01182
G1 X207.521 Y191.523 E.79501
;WIDTH:0.506611
G1 X207.695 Y191.512 E.00672
G1 X207.915 Y191.394 E.00963
;WIDTH:0.473305
G1 X208.136 Y191.276 E.00897
;WIDTH:0.439999
G1 X208.44 Y190.841 E.01752
G1 X208.494 Y190.521 E.01071
G1 X208.494 Y189.113 E.04649
G1 X210.506 Y191.125 E.09395
G1 X210.506 Y191.383 E.00852
G1 X210.506 Y192.006 E.02057
G1 X208.395 Y192.006 E.0697
;WIDTH:0.468651
G1 X207.958 Y191.992 E.01548
;WIDTH:0.497302
G1 X207.521 Y191.977 E.01652
G1 X186.479 Y191.977 E.79501
G1 X186.069 Y191.992 E.0155
;WIDTH:0.468651
G1 X185.66 Y192.006 E.01449
;WIDTH:0.439999
G1 X149.494 Y192.006 E1.1941
G1 X149.494 Y167.994 E.79281
G1 X185.66 Y167.994 E1.1941
;WIDTH:0.468651
G1 X186.069 Y168.008 E.01449
;WIDTH:0.497302
G1 X186.479 Y168.023 E.0155
G1 X207.521 Y168.023 E.79501
G1 X207.978 Y168.008 E.01728
;WIDTH:0.468651
G1 X208.434 Y167.994 E.01615
;WIDTH:0.439999
G1 X210.506 Y167.994 E.06841
G1 X210.506 Y169.028 E.03414
G1 X210.506 Y169.028 F9000
G1 X210.903 Y169.253
G1 F2400
G1 X208.097 Y172.059 E.13102
G1 X208.097 Y169.479 E.08518
G1 X208.073 Y169.312 E.00557
G1 X207.897 Y169.042 E.01064
G1 X207.521 Y168.903 E.01324
G1 X186.479 Y168.903 E.69475
G1 X186.133 Y169.018 E.01204
G1 X185.947 Y169.257 E.01
G1 X185.903 Y169.479 E.00747
G1 X185.903 Y190.521 E.69475
G1 X185.947 Y190.743 E.00747
G1 X186.133 Y190.982 E.01
G1 X186.479 Y191.097 E.01204
G1 X207.621 Y191.088 E.69805
G1 X207.885 Y190.968 E.00957
G1 X208.065 Y190.71 E.01039
G1 X208.097 Y190.521 E.00633
G1 X208.097 Y188.155 E.07812
G1 X210.903 Y190.961 E.13102
G1 X210.903 Y191.383 E.01393
G1 X210.903 Y192.403 E.03368
G1 X149.097 Y192.403 E2.04066
G1 X149.097 Y167.597 E.81903
G1 X210.903 Y167.597 E2.04066
G1 X210.903 Y169.193 E.0527
G1 X210.903 Y169.193 F9000
G1 X211.29 Y169.413
;TYPE:External perimeter
;WIDTH:0.419999
G1 F1500
G1 X207.71 Y172.993 E.15874
G1 X207.71 Y169.479 E.11018
G1 X207.645 Y169.336 E.00493
