; generated by Slic3r 1.3.1-dev (Build b582df12363b11c5b5e1a4337ffac850e4543f71) on 2019-07-04 at 15:01:45

; external perimeters extrusion width = 0.45mm (2.65mm^3/s)
; perimeters extrusion width = 0.45mm (4.07mm^3/s)
; infill extrusion width = 0.45mm (4.88mm^3/s)
; solid infill extrusion width = 0.42mm (3.02mm^3/s)
; top infill extrusion width = 0.42mm (1.51mm^3/s)

M107
; Monoprice Mini Delta
M140 S55 ; set bed temp
M190 S55 ; wait for bed temp
M104 S200 T0 ; set extruder temp
M109 S200 T0 ; wait for extruder temp
G92 E0 ; reset extrusion distance
G28 ; Start from home position
G1 E-6 F900 ; retract 6mm of filament before starting the bed leveling process
G92 E0 ; reset extrusion distance
G4 S5 ; Pause for 5 seconds to allow time for removing extruded filament
;G29
G29 P6 Z0.45 ;If your first layer is too far from the bed then lower the Z number, if it is to close, then raise it.
G1 Z60 ; raise Z 60mm to prepare for priming the nozzle
G1 E20 F300 ; extrude 20mm of filament to help prime the nozzle just prior to the start of the print
G92 E0 ; reset extrusion distance
G4 S10 ; Pause for 10 seconds to allow time for cleaniing the nozzle and build plate if needed
G92 E0
;Put printing message on LCD screen
M117 Printing...
; Filament gcode

G21 ; set units to millimeters
G90 ; use absolute coordinates
M82 ; use absolute distances for extrusion
G92 E0
G92 E0
G1 Z0.400 F6600.000
G1 E-5.00000 F3600.00000
G92 E0
G1 Z0.900 F6600.000
G1 X-19.103 Y26.927 F6600.000
G1 Z0.400 F6600.000
G1 E5.00000 F3600.00000
G1 F1200
G1 X-20.889 Y27.206 E5.12456
G1 X-22.453 Y27.354 E5.23273
G1 X-24.174 Y27.413 E5.35134
G1 X-26.047 Y27.354 E5.48038
G1 X-27.761 Y27.187 E5.59900
G1 X-29.312 Y26.942 E5.70718
G1 X-31.141 Y26.533 E5.83623
G1 X-32.649 Y26.095 E5.94440
G1 X-34.271 Y25.516 E6.06301
G1 X-35.853 Y24.836 E6.18162
G1 X-37.523 Y23.986 E6.31067
G1 X-38.875 Y23.186 E6.41885
G1 X-40.302 Y22.222 E6.53746
G1 X-41.782 Y21.074 E6.66651
G1 X-42.960 Y20.035 E6.77468
G1 X-44.181 Y18.821 E6.89329
G1 X-45.324 Y17.532 E7.01190
G1 X-46.472 Y16.052 E7.14095
G1 X-47.355 Y14.753 E7.24912
G1 X-48.236 Y13.273 E7.36774
G1 X-49.086 Y11.603 E7.49679
G1 X-49.710 Y10.162 E7.60497
G1 X-50.298 Y8.543 E7.72357
G1 X-50.821 Y6.744 E7.85262
G1 X-51.192 Y5.062 E7.97123
G1 X-51.437 Y3.511 E8.07941
G1 X-51.614 Y1.646 E8.20846
G1 X-51.663 Y0.075 E8.31665
G1 X-51.614 Y-1.646 E8.43524
G1 X-51.437 Y-3.511 E8.56429
G1 X-51.192 Y-5.062 E8.67248
G1 X-50.821 Y-6.744 E8.79107
G1 X-50.345 Y-8.399 E8.90971
G1 X-49.710 Y-10.162 E9.03873
G1 X-49.086 Y-11.603 E9.14692
G1 X-48.309 Y-13.140 E9.26552
G1 X-47.355 Y-14.753 E9.39458
G1 X-46.383 Y-16.174 E9.51318
G1 X-45.420 Y-17.415 E9.62136
G1 X-44.181 Y-18.821 E9.75041
G1 X-43.071 Y-19.931 E9.85858
G1 X-41.782 Y-21.074 E9.97719
G1 X-40.302 Y-22.222 E10.10623
G1 X-38.875 Y-23.186 E10.22485
G1 X-37.523 Y-23.986 E10.33303
G1 X-35.991 Y-24.772 E10.45163
G1 X-34.271 Y-25.516 E10.58067
G1 X-32.649 Y-26.095 E10.69929
G1 X-30.994 Y-26.571 E10.81790
G1 X-29.312 Y-26.942 E10.93651
G1 X-27.611 Y-27.206 E11.05513
G1 X-25.896 Y-27.364 E11.17374
G1 X-24.175 Y-27.413 E11.29233
G1 X-22.604 Y-27.364 E11.40052
G1 X-20.889 Y-27.206 E11.51914
G1 X-19.103 Y-26.927 E11.64370
G1 X38.742 Y-15.630 E15.70303
G1 X39.634 Y-15.432 E15.76594
G1 X40.595 Y-15.158 E15.83480
G1 X41.537 Y-14.823 E15.90366
G1 X42.457 Y-14.431 E15.97251
G1 X43.350 Y-13.981 E16.04137
G1 X44.213 Y-13.476 E16.11022
G1 X45.165 Y-12.829 E16.18951
G1 X45.951 Y-12.213 E16.25830
G1 X46.698 Y-11.548 E16.32718
G1 X47.298 Y-10.948 E16.38563
G1 X47.963 Y-10.202 E16.45449
G1 X48.579 Y-9.415 E16.52335
G1 X49.145 Y-8.590 E16.59221
G1 X49.658 Y-7.732 E16.66108
G1 X50.116 Y-6.844 E16.72988
G1 X50.573 Y-5.788 E16.80918
G1 X50.861 Y-4.989 E16.86763
G1 X51.144 Y-4.031 E16.93647
G1 X51.395 Y-2.907 E17.01576
G1 X51.547 Y-1.919 E17.08458
G1 X51.636 Y-0.923 E17.15346
G1 X51.663 Y-0.076 E17.21187
G1 X51.636 Y0.923 E17.28071
G1 X51.528 Y2.069 E17.36000
G1 X51.395 Y2.907 E17.41841
G1 X51.182 Y3.884 E17.48728
G1 X50.861 Y4.990 E17.56658
G1 X50.518 Y5.928 E17.63542
G1 X50.181 Y6.707 E17.69383
G1 X49.658 Y7.733 E17.77313
G1 X49.226 Y8.463 E17.83154
G1 X48.668 Y9.292 E17.90040
G1 X48.059 Y10.085 E17.96925
G1 X47.407 Y10.832 E18.03759
G1 X46.588 Y11.652 E18.11741
G1 X45.835 Y12.309 E18.18620
G1 X45.165 Y12.829 E18.24466
G1 X44.213 Y13.476 E18.32396
G1 X43.350 Y13.981 E18.39279
G1 X42.594 Y14.366 E18.45121
G1 X41.678 Y14.768 E18.52007
G1 X40.739 Y15.111 E18.58893
G1 X39.781 Y15.394 E18.65778
G1 X38.742 Y15.630 E18.73114
G1 X-19.044 Y26.915 E22.78634
G1 F5280
G1 X-19.188 Y26.942 E22.69156
G1 F5280
G1 X-20.739 Y27.187 E21.67427
G1 F5280
G1 X-20.889 Y27.206 E21.57601
G1 F5280
G1 X-22.453 Y27.354 E20.55873
G1 F5280
G1 X-22.604 Y27.364 E20.46047
G1 F5280
G1 X-24.174 Y27.413 E19.44319
G1 F5280
G1 X-24.326 Y27.413 E19.34502
G1 F5280
G1 X-25.896 Y27.364 E18.32774
G1 F5280
G1 X-26.047 Y27.354 E18.22961
G1 F5280
G1 X-26.060 Y27.353 E18.22077
G1 F5280
G1 X-26.061 Y27.353 E18.22063
G1 F5280
G1 X-26.344 Y27.326 E18.03634
G1 E17.78634 F3600.00000
G92 E0
G1 Z0.900 F6600.000
G1 X-43.876 Y1.235 F6600.000
G1 Z0.400 F6600.000
G1 E5.00000 F3600.00000
G1 F1200
G1 X-43.914 Y-0.000 E5.08508
G1 X-43.876 Y-1.235 E5.17017
G1 X-43.759 Y-2.465 E5.25525
G1 X-43.566 Y-3.685 E5.34034
G1 X-43.297 Y-4.890 E5.42542
G1 X-42.952 Y-6.077 E5.51051
G1 X-42.534 Y-7.239 E5.59559
G1 X-42.043 Y-8.373 E5.68068
G1 X-41.482 Y-9.473 E5.76577
G1 X-40.853 Y-10.537 E5.85085
G1 X-40.159 Y-11.558 E5.93593
G1 X-39.402 Y-12.535 E6.02102
G1 X-38.585 Y-13.461 E6.10611
G1 X-37.711 Y-14.335 E6.19119
G1 X-36.785 Y-15.152 E6.27627
G1 X-35.808 Y-15.909 E6.36136
G1 X-34.787 Y-16.603 E6.44644
G1 X-33.723 Y-17.232 E6.53153
G1 X-32.623 Y-17.793 E6.61661
G1 X-31.489 Y-18.284 E6.70170
G1 X-30.327 Y-18.702 E6.78678
G1 X-29.140 Y-19.047 E6.87187
G1 X-27.935 Y-19.316 E6.95695
G1 X-26.715 Y-19.509 E7.04204
G1 X-25.485 Y-19.626 E7.12712
G1 X-24.331 Y-19.662 E7.20664
G1 X-23.017 Y-19.626 E7.29719
G1 X-21.785 Y-19.509 E7.38237
G1 X-20.565 Y-19.316 E7.46745
G1 X-19.360 Y-19.047 E7.55254
G1 X-18.251 Y-18.725 E7.63205
G1 X-17.012 Y-18.284 E7.72261
G1 X-15.877 Y-17.793 E7.80778
G1 X-14.777 Y-17.232 E7.89287
G1 X-13.713 Y-16.603 E7.97795
G1 X-12.692 Y-15.909 E8.06303
G1 X-11.715 Y-15.152 E8.14812
G1 X-10.789 Y-14.335 E8.23321
G1 X-9.915 Y-13.461 E8.31829
G1 X-9.097 Y-12.534 E8.40347
G1 X-8.296 Y-11.492 E8.49402
G1 X-7.647 Y-10.537 E8.57354
G1 X-7.018 Y-9.473 E8.65862
G1 X-6.457 Y-8.373 E8.74370
G1 X-5.966 Y-7.239 E8.82879
G1 X-5.548 Y-6.077 E8.91388
G1 X-5.203 Y-4.890 E8.99896
G1 X-4.934 Y-3.683 E9.08414
G1 X-4.733 Y-2.384 E9.17469
G1 X-4.624 Y-1.235 E9.25421
G1 X-4.586 Y0.000 E9.33929
G1 X-4.624 Y1.235 E9.42438
G1 X-4.741 Y2.465 E9.50946
G1 X-4.934 Y3.685 E9.59456
G1 X-5.207 Y4.903 E9.68055
G1 X-5.548 Y6.077 E9.76471
G1 X-5.966 Y7.239 E9.84980
G1 X-6.457 Y8.373 E9.93489
G1 X-7.018 Y9.473 E10.01997
G1 X-7.647 Y10.537 E10.10505
G1 X-8.341 Y11.558 E10.19014
G1 X-9.098 Y12.535 E10.27522
G1 X-9.915 Y13.461 E10.36031
G1 X-10.789 Y14.335 E10.44539
G1 X-11.715 Y15.152 E10.53048
G1 X-12.692 Y15.909 E10.61556
G1 X-13.713 Y16.603 E10.70065
G1 X-14.777 Y17.232 E10.78573
G1 X-15.877 Y17.793 E10.87082
G1 X-17.011 Y18.284 E10.95590
G1 X-18.173 Y18.702 E11.04099
G1 X-19.360 Y19.047 E11.12607
G1 X-20.565 Y19.316 E11.21116
G1 X-21.785 Y19.509 E11.29624
G1 X-23.015 Y19.626 E11.38133
G1 X-24.250 Y19.664 E11.46641
G1 X-25.485 Y19.626 E11.55150
G1 X-26.715 Y19.509 E11.63658
G1 X-27.935 Y19.316 E11.72167
G1 X-29.140 Y19.047 E11.80675
G1 X-30.249 Y18.725 E11.88626
G1 X-31.488 Y18.284 E11.97682
G1 X-32.623 Y17.793 E12.06200
G1 X-33.723 Y17.232 E12.14708
G1 X-34.787 Y16.603 E12.23217
G1 X-35.808 Y15.909 E12.31725
G1 X-36.785 Y15.152 E12.40234
G1 X-37.711 Y14.335 E12.48742
G1 X-38.585 Y13.461 E12.57250
G1 X-39.403 Y12.534 E12.65768
G1 X-40.204 Y11.492 E12.74824
G1 X-40.853 Y10.537 E12.82775
G1 X-41.482 Y9.473 E12.91283
G1 X-42.043 Y8.373 E12.99792
G1 X-42.534 Y7.239 E13.08301
G1 X-42.952 Y6.077 E13.16809
G1 X-43.297 Y4.890 E13.25318
G1 X-43.567 Y3.683 E13.33835
G1 X-43.767 Y2.384 E13.42891
G1 X-43.870 Y1.294 E13.50429
G1 X-43.462 Y1.209 F6600.000
G1 F1200
G1 X-43.500 Y-0.000 E13.58758
G1 X-43.462 Y-1.209 E13.67087
G1 X-43.348 Y-2.413 E13.75416
G1 X-43.159 Y-3.607 E13.83746
G1 X-42.895 Y-4.787 E13.92075
G1 X-42.558 Y-5.949 E14.00404
G1 X-42.148 Y-7.086 E14.08733
G1 X-41.668 Y-8.196 E14.17063
G1 X-41.119 Y-9.274 E14.25392
G1 X-40.503 Y-10.315 E14.33721
G1 X-39.824 Y-11.315 E14.42050
G1 X-39.083 Y-12.271 E14.50379
G1 X-38.283 Y-13.178 E14.58709
G1 X-37.428 Y-14.033 E14.67038
G1 X-36.521 Y-14.833 E14.75367
G1 X-35.565 Y-15.574 E14.83696
G1 X-34.565 Y-16.253 E14.92025
G1 X-33.524 Y-16.869 E15.00354
G1 X-32.446 Y-17.418 E15.08684
G1 X-31.336 Y-17.898 E15.17013
G1 X-30.199 Y-18.308 E15.25342
G1 X-29.037 Y-18.645 E15.33671
G1 X-27.857 Y-18.909 E15.42001
G1 X-26.663 Y-19.098 E15.50330
G1 X-25.459 Y-19.212 E15.58659
G1 X-24.330 Y-19.248 E15.66437
G1 X-23.042 Y-19.212 E15.75313
G1 X-21.837 Y-19.098 E15.83645
G1 X-20.643 Y-18.909 E15.91975
G1 X-19.463 Y-18.645 E16.00304
G1 X-18.378 Y-18.330 E16.08082
G1 X-17.164 Y-17.899 E16.16958
G1 X-16.054 Y-17.418 E16.25291
G1 X-14.976 Y-16.869 E16.33620
G1 X-13.935 Y-16.253 E16.41949
G1 X-12.935 Y-15.574 E16.50278
G1 X-11.979 Y-14.833 E16.58607
G1 X-11.072 Y-14.033 E16.66937
G1 X-10.217 Y-13.178 E16.75266
G1 X-9.417 Y-12.270 E16.83598
G1 X-8.631 Y-11.249 E16.92475
G1 X-7.997 Y-10.315 E17.00252
G1 X-7.381 Y-9.274 E17.08581
G1 X-6.832 Y-8.196 E17.16911
G1 X-6.352 Y-7.086 E17.25240
G1 X-5.942 Y-5.949 E17.33569
G1 X-5.605 Y-4.787 E17.41898
G1 X-5.341 Y-3.607 E17.50231
G1 X-5.144 Y-2.333 E17.59107
G1 X-5.038 Y-1.209 E17.66885
G1 X-5.000 Y0.000 E17.75214
G1 X-5.038 Y1.209 E17.83543
G1 X-5.152 Y2.413 E17.91873
G1 X-5.341 Y3.607 E18.00202
G1 X-5.608 Y4.800 E18.08622
G1 X-5.942 Y5.949 E18.16860
G1 X-6.352 Y7.086 E18.25189
G1 X-6.832 Y8.196 E18.33519
G1 X-7.381 Y9.274 E18.41848
G1 X-7.997 Y10.315 E18.50177
G1 X-8.676 Y11.315 E18.58506
G1 X-9.417 Y12.271 E18.66835
G1 X-10.217 Y13.178 E18.75165
G1 X-11.072 Y14.033 E18.83494
G1 X-11.979 Y14.833 E18.91823
G1 X-12.935 Y15.574 E19.00152
G1 X-13.935 Y16.253 E19.08481
G1 X-14.976 Y16.869 E19.16810
G1 X-16.054 Y17.418 E19.25140
G1 X-17.164 Y17.898 E19.33469
G1 X-18.301 Y18.308 E19.41798
G1 X-19.463 Y18.645 E19.50127
G1 X-20.643 Y18.909 E19.58457
G1 X-21.837 Y19.098 E19.66786
G1 X-23.041 Y19.212 E19.75115
G1 X-24.250 Y19.250 E19.83444
G1 X-25.459 Y19.212 E19.91773
G1 X-26.663 Y19.098 E20.00102
G1 X-27.857 Y18.909 E20.08432
G1 X-29.037 Y18.645 E20.16761
G1 X-30.122 Y18.330 E20.24539
G1 X-31.336 Y17.899 E20.33415
G1 X-32.446 Y17.418 E20.41748
G1 X-33.524 Y16.869 E20.50077
G1 X-34.565 Y16.253 E20.58406
G1 X-35.565 Y15.574 E20.66735
G1 X-36.521 Y14.833 E20.75064
G1 X-37.428 Y14.033 E20.83394
G1 X-38.283 Y13.178 E20.91723
G1 X-39.083 Y12.270 E21.00055
G1 X-39.869 Y11.249 E21.08932
G1 X-40.503 Y10.315 E21.16709
G1 X-41.119 Y9.274 E21.25038
G1 X-41.668 Y8.196 E21.33368
G1 X-42.148 Y7.086 E21.41697
G1 X-42.558 Y5.949 E21.50026
G1 X-42.895 Y4.787 E21.58355
G1 X-43.159 Y3.607 E21.66688
G1 X-43.356 Y2.333 E21.75564
G1 X-43.456 Y1.268 E21.82929
G1 X-43.820 Y1.031 F6600.000
G1 F5280
G1 X-43.500 Y-0.000 E21.00719
G1 F5280
G1 X-43.462 Y-1.209 E20.22388
G1 F5280
G1 X-43.348 Y-2.413 E19.44057
G1 F5280
G1 X-43.159 Y-3.607 E18.65725
G1 F5280
G1 X-42.895 Y-4.787 E17.87394
G1 F5280
G1 X-42.558 Y-5.949 E17.09064
G1 F5280
G1 X-42.552 Y-5.965 E17.07929
G1 E16.82929 F3600.00000
G92 E0
G1 Z0.900 F6600.000
G1 X-44.254 Y-0.000 F6600.000
G1 X-37.597 Y14.933 F6600.000
G1 X-37.325 Y15.228 F6600.000
G1 Z0.400 F6600.000
G1 E5.00000 F3600.00000
G1 F1200
G1 X-37.049 Y15.471 E5.02535
G1 X-36.052 Y16.244 E5.11223
G1 X-35.009 Y16.953 E5.19910
G1 X-33.923 Y17.595 E5.28598
G1 X-32.799 Y18.168 E5.37286
G1 X-31.640 Y18.670 E5.45988
G1 X-30.376 Y19.119 E5.55223
G1 X-29.243 Y19.448 E5.63348
G1 X-28.012 Y19.723 E5.72036
G1 X-26.767 Y19.921 E5.80724
G1 X-25.511 Y20.039 E5.89412
G1 X-24.250 Y20.079 E5.98099
G1 X-22.989 Y20.039 E6.06787
G1 X-21.733 Y19.921 E6.15475
G1 X-20.488 Y19.723 E6.24163
G1 X-19.257 Y19.448 E6.32850
G1 X-18.045 Y19.096 E6.41538
G1 X-16.858 Y18.669 E6.50226
G1 X-15.701 Y18.168 E6.58914
G1 X-14.577 Y17.595 E6.67602
G1 X-13.491 Y16.953 E6.76289
G1 X-12.448 Y16.244 E6.84977
G1 X-11.451 Y15.471 E6.93665
G1 X-11.175 Y15.228 E6.96200
G1 X-11.018 Y15.328 E6.97485
G1 X-11.053 Y15.449 E6.98356
G1 X-11.103 Y15.980 E7.02029
G1 X-11.053 Y16.511 E7.05701
G1 X-10.904 Y17.023 E7.09373
G1 X-10.670 Y17.483 E7.12929
G1 X-10.451 Y17.784 E7.15490
G1 X-10.203 Y18.049 E7.17995
G1 X-9.789 Y18.371 E7.21605
G1 X-9.313 Y18.614 E7.25288
G1 X-8.801 Y18.763 E7.28960
G1 X-8.270 Y18.813 E7.32633
G1 X-7.739 Y18.763 E7.36306
G1 X-7.227 Y18.614 E7.39978
G1 X-6.752 Y18.372 E7.43650
G1 X-6.331 Y18.045 E7.47324
G1 X-5.989 Y17.658 E7.50880
G1 X-5.790 Y17.344 E7.53440
G1 X-5.635 Y17.015 E7.55945
G1 X-5.487 Y16.512 E7.59554
G1 X-5.437 Y15.980 E7.63237
G1 X-5.487 Y15.449 E7.66910
G1 X-5.636 Y14.937 E7.70582
G1 X-5.870 Y14.477 E7.74138
G1 X-6.089 Y14.176 E7.76703
G1 X-6.344 Y13.904 E7.79268
G1 X-6.752 Y13.588 E7.82824
G1 X-7.227 Y13.346 E7.86497
G1 X-7.741 Y13.197 E7.90180
G1 X-8.262 Y13.149 E7.93789
G1 X-8.625 Y13.172 E7.96294
G1 X-8.936 Y13.231 E7.98474
G1 X-9.024 Y13.077 E7.99697
G1 X-8.779 Y12.799 E8.02253
G1 X-8.006 Y11.802 E8.10941
G1 X-7.297 Y10.759 E8.19628
G1 X-6.655 Y9.673 E8.28316
G1 X-6.082 Y8.549 E8.37003
G1 X-5.581 Y7.392 E8.45691
G1 X-5.154 Y6.205 E8.54379
G1 X-4.806 Y5.006 E8.62974
G1 X-4.527 Y3.763 E8.71752
G1 X-4.329 Y2.517 E8.80443
G1 X-4.211 Y1.261 E8.89130
G1 X-4.171 Y0.000 E8.97818
G1 X-4.211 Y-1.261 E9.06506
G1 X-4.322 Y-2.435 E9.14631
G1 X-4.526 Y-3.760 E9.23866
G1 X-4.802 Y-4.993 E9.32568
G1 X-5.154 Y-6.205 E9.41256
G1 X-5.581 Y-7.392 E9.49944
G1 X-6.082 Y-8.549 E9.58632
G1 X-6.655 Y-9.673 E9.67319
G1 X-7.297 Y-10.759 E9.76007
G1 X-7.960 Y-11.734 E9.84132
G1 X-8.778 Y-12.797 E9.93367
G1 X-9.022 Y-13.075 E9.95916
G1 X-8.922 Y-13.232 E9.97201
G1 X-8.801 Y-13.197 E9.98072
G1 X-8.270 Y-13.147 E10.01745
G1 X-7.739 Y-13.197 E10.05418
G1 X-7.227 Y-13.346 E10.09090
G1 X-6.752 Y-13.588 E10.12763
G1 X-6.344 Y-13.904 E10.16319
G1 X-6.089 Y-14.176 E10.18884
G1 X-5.870 Y-14.477 E10.21450
G1 X-5.636 Y-14.937 E10.25005
G1 X-5.487 Y-15.449 E10.28677
G1 X-5.437 Y-15.980 E10.32350
G1 X-5.487 Y-16.511 E10.36023
G1 X-5.636 Y-17.023 E10.39695
G1 X-5.870 Y-17.483 E10.43250
G1 X-6.089 Y-17.784 E10.45816
G1 X-6.344 Y-18.056 E10.48381
G1 X-6.752 Y-18.372 E10.51937
G1 X-7.227 Y-18.614 E10.55610
G1 X-7.741 Y-18.763 E10.59292
G1 X-8.262 Y-18.811 E10.62901
G1 X-8.625 Y-18.788 E10.65406
G1 X-8.991 Y-18.718 E10.67968
G1 X-9.476 Y-18.543 E10.71522
G1 X-9.935 Y-18.272 E10.75194
G1 X-10.335 Y-17.919 E10.78867
G1 X-10.662 Y-17.498 E10.82541
G1 X-10.904 Y-17.023 E10.86214
G1 X-11.053 Y-16.511 E10.89886
G1 X-11.103 Y-15.980 E10.93559
G1 X-11.053 Y-15.449 E10.97231
G1 X-11.018 Y-15.328 E10.98103
G1 X-11.175 Y-15.228 E10.99388
G1 X-11.451 Y-15.471 E11.01923
G1 X-12.448 Y-16.244 E11.10611
G1 X-13.491 Y-16.953 E11.19298
G1 X-14.577 Y-17.595 E11.27986
G1 X-15.701 Y-18.168 E11.36673
G1 X-16.860 Y-18.670 E11.45376
G1 X-18.124 Y-19.119 E11.54611
G1 X-19.257 Y-19.448 E11.62736
G1 X-20.488 Y-19.723 E11.71424
G1 X-21.733 Y-19.921 E11.80112
G1 X-22.991 Y-20.039 E11.88814
G1 X-24.332 Y-20.076 E11.98049
G1 X-25.511 Y-20.039 E12.06174
G1 X-26.767 Y-19.921 E12.14861
G1 X-28.012 Y-19.723 E12.23549
G1 X-29.243 Y-19.448 E12.32237
G1 X-30.455 Y-19.096 E12.40925
G1 X-31.642 Y-18.669 E12.49613
G1 X-32.799 Y-18.168 E12.58301
G1 X-33.923 Y-17.595 E12.66988
G1 X-35.009 Y-16.953 E12.75676
G1 X-36.052 Y-16.244 E12.84364
G1 X-37.049 Y-15.471 E12.93052
G1 X-37.325 Y-15.228 E12.95586
G1 X-37.482 Y-15.328 E12.96871
G1 X-37.447 Y-15.449 E12.97743
G1 X-37.397 Y-15.980 E13.01415
G1 X-37.447 Y-16.511 E13.05088
G1 X-37.596 Y-17.023 E13.08760
G1 X-37.830 Y-17.483 E13.12316
G1 X-38.049 Y-17.784 E13.14881
G1 X-38.304 Y-18.056 E13.17446
G1 X-38.712 Y-18.372 E13.21003
G1 X-39.233 Y-18.637 E13.25026
G1 X-38.310 Y-19.353 E13.33064
G1 X-37.068 Y-20.197 E13.43414
