; generated by Slic3r 1.3.1-dev (Build b582df12363b11c5b5e1a4337ffac850e4543f71) on 2019-07-04 at 13:35:15

; external perimeters extrusion width = 0.45mm (2.65mm^3/s)
; perimeters extrusion width = 0.45mm (4.07mm^3/s)
; infill extrusion width = 0.45mm (4.88mm^3/s)
; solid infill extrusion width = 0.42mm (3.02mm^3/s)
; top infill extrusion width = 0.42mm (1.51mm^3/s)

M107
; Monoprice Mini Delta
M140 S55 ; set bed temp
M190 S55 ; wait for bed temp
M104 S200 T0 ; set extruder temp
M109 S200 T0 ; wait for extruder temp
G92 E0 ; reset extrusion distance
G28 ; Start from home position
G1 E-6 F900 ; retract 6mm of filament before starting the bed leveling process
G92 E0 ; reset extrusion distance
G4 S5 ; Pause for 5 seconds to allow time for removing extruded filament
;G29
G29 P6 Z0.45 ;If your first layer is too far from the bed then lower the Z number, if it is to close, then raise it.
G1 Z60 ; raise Z 60mm to prepare for priming the nozzle
G1 E20 F300 ; extrude 20mm of filament to help prime the nozzle just prior to the start of the print
G92 E0 ; reset extrusion distance
G4 S10 ; Pause for 10 seconds to allow time for cleaniing the nozzle and build plate if needed
G92 E0
;Put printing message on LCD screen
M117 Printing...
; Filament gcode

G21 ; set units to millimeters
G90 ; use absolute coordinates
M82 ; use absolute distances for extrusion
G92 E0
G92 E0
G1 Z0.400 F6600.000
G1 E-5.00000 F3600.00000
G92 E0
G1 Z0.900 F6600.000
G1 X-19.103 Y26.927 F6600.000
G1 Z0.400 F6600.000
G1 E5.00000 F3600.00000
G1 F1200
G1 X-20.889 Y27.206 E5.12455
G1 X-22.453 Y27.354 E5.23273
G1 X-24.174 Y27.413 E5.35134
G1 X-26.047 Y27.354 E5.48039
G1 X-27.611 Y27.206 E5.58856
G1 X-29.312 Y26.942 E5.70718
G1 X-31.141 Y26.533 E5.83623
G1 X-32.649 Y26.095 E5.94440
G1 X-34.271 Y25.516 E6.06301
G1 X-35.991 Y24.772 E6.19206
G1 X-37.523 Y23.986 E6.31066
G1 X-39.003 Y23.105 E6.42929
G1 X-40.302 Y22.222 E6.53746
G1 X-41.782 Y21.074 E6.66651
G1 X-42.960 Y20.035 E6.77468
G1 X-44.080 Y18.922 E6.88345
G1 X-45.324 Y17.532 E7.01189
G1 X-46.472 Y16.052 E7.14093
G1 X-47.355 Y14.753 E7.24911
G1 X-48.236 Y13.273 E7.36773
G1 X-49.086 Y11.603 E7.49678
G1 X-49.710 Y10.162 E7.60495
G1 X-50.298 Y8.543 E7.72356
G1 X-50.821 Y6.744 E7.85261
G1 X-51.163 Y5.211 E7.96078
G1 X-51.437 Y3.511 E8.07939
G1 X-51.614 Y1.646 E8.20844
G1 X-51.663 Y0.076 E8.31662
G1 X-51.614 Y-1.619 E8.43342
G1 X-51.456 Y-3.361 E8.55383
G1 X-51.163 Y-5.211 E8.68288
G1 X-50.821 Y-6.744 E8.79105
G1 X-50.345 Y-8.399 E8.90968
G1 X-49.710 Y-10.162 E9.03871
G1 X-49.022 Y-11.741 E9.15733
G1 X-48.309 Y-13.140 E9.26550
G1 X-47.436 Y-14.625 E9.38411
G1 X-46.383 Y-16.174 E9.51316
G1 X-45.420 Y-17.415 E9.62133
G1 X-44.285 Y-18.710 E9.73995
G1 X-42.960 Y-20.035 E9.86900
G1 X-41.782 Y-21.074 E9.97717
G1 X-40.424 Y-22.133 E10.09579
G1 X-38.875 Y-23.186 E10.22483
G1 X-37.523 Y-23.986 E10.33301
G1 X-35.991 Y-24.772 E10.45161
G1 X-34.412 Y-25.460 E10.57023
G1 X-32.649 Y-26.095 E10.69927
G1 X-30.994 Y-26.571 E10.81789
G1 X-29.312 Y-26.942 E10.93650
G1 X-27.611 Y-27.206 E11.05511
G1 X-25.896 Y-27.364 E11.17373
G1 X-24.174 Y-27.413 E11.29233
G1 X-22.604 Y-27.364 E11.40050
G1 X-20.889 Y-27.206 E11.51912
G1 X-19.103 Y-26.927 E11.64368
G1 X38.742 Y-15.630 E15.70301
G1 X39.634 Y-15.432 E15.76592
G1 X40.595 Y-15.158 E15.83478
G1 X41.537 Y-14.823 E15.90364
G1 X42.457 Y-14.431 E15.97249
G1 X43.350 Y-13.981 E16.04135
G1 X44.213 Y-13.476 E16.11020
G1 X45.165 Y-12.829 E16.18949
G1 X45.952 Y-12.213 E16.25833
G1 X46.698 Y-11.548 E16.32719
G1 X47.402 Y-10.838 E16.39606
G1 X47.963 Y-10.201 E16.45449
G1 X48.579 Y-9.415 E16.52331
G1 X49.145 Y-8.591 E16.59217
G1 X49.658 Y-7.732 E16.66105
G1 X50.116 Y-6.844 E16.72989
G1 X50.573 Y-5.788 E16.80916
G1 X50.861 Y-4.990 E16.86758
G1 X51.144 Y-4.031 E16.93644
G1 X51.395 Y-2.907 E17.01574
G1 X51.528 Y-2.069 E17.07418
G1 X51.627 Y-1.075 E17.14301
G1 X51.663 Y0.076 E17.22228
G1 X51.636 Y0.923 E17.28069
G1 X51.547 Y1.919 E17.34957
G1 X51.367 Y3.056 E17.42885
G1 X51.144 Y4.031 E17.49769
G1 X50.861 Y4.990 E17.56656
G1 X50.573 Y5.788 E17.62501
G1 X50.181 Y6.707 E17.69384
G1 X49.731 Y7.600 E17.76269
G1 X49.226 Y8.463 E17.83152
G1 X48.579 Y9.415 E17.91082
G1 X48.059 Y10.085 E17.96924
G1 X47.402 Y10.838 E18.03807
G1 X46.588 Y11.652 E18.11735
G1 X45.835 Y12.309 E18.18622
G1 X45.165 Y12.829 E18.24464
G1 X44.213 Y13.476 E18.32393
G1 X43.350 Y13.981 E18.39275
G1 X42.594 Y14.366 E18.45120
G1 X41.678 Y14.768 E18.52006
G1 X40.739 Y15.111 E18.58891
G1 X39.781 Y15.394 E18.65777
G1 X38.742 Y15.630 E18.73112
G1 X-19.044 Y26.915 E22.78632
G1 F5280
G1 X-19.188 Y26.942 E22.69158
G1 F5280
G1 X-19.214 Y26.946 E22.67463
G1 F5280
G1 X-19.214 Y26.946 E22.67458
G1 F5280
G1 X-20.739 Y27.187 E21.67425
G1 F5280
G1 X-20.889 Y27.206 E21.57609
G1 F5280
G1 X-20.915 Y27.209 E21.55913
G1 F5280
G1 X-20.916 Y27.209 E21.55904
G1 F5280
G1 X-22.453 Y27.354 E20.55871
G1 F5280
G1 X-22.604 Y27.364 E20.46045
G1 F5280
G1 X-24.174 Y27.413 E19.44317
G1 F5280
G1 X-24.326 Y27.413 E19.34504
G1 F5280
G1 X-24.352 Y27.412 E19.32809
G1 F5280
G1 X-24.352 Y27.412 E19.32805
G1 F5280
G1 X-25.896 Y27.364 E18.32772
G1 F5280
G1 X-26.047 Y27.354 E18.22946
G1 F5280
G1 X-26.344 Y27.326 E18.03632
G1 E17.78632 F3600.00000
G92 E0
G1 Z0.900 F6600.000
G1 X-43.876 Y1.235 F6600.000
G1 Z0.400 F6600.000
G1 E5.00000 F3600.00000
G1 F1200
G1 X-43.914 Y0.000 E5.08508
G1 X-43.876 Y-1.235 E5.17017
G1 X-43.759 Y-2.465 E5.25525
G1 X-43.566 Y-3.685 E5.34034
G1 X-43.297 Y-4.890 E5.42542
G1 X-42.952 Y-6.077 E5.51051
G1 X-42.534 Y-7.239 E5.59559
G1 X-42.043 Y-8.373 E5.68068
G1 X-41.482 Y-9.473 E5.76577
G1 X-40.853 Y-10.537 E5.85085
G1 X-40.159 Y-11.558 E5.93593
G1 X-39.402 Y-12.535 E6.02102
G1 X-38.585 Y-13.461 E6.10611
G1 X-37.711 Y-14.335 E6.19119
G1 X-36.785 Y-15.152 E6.27627
G1 X-35.808 Y-15.909 E6.36136
G1 X-34.787 Y-16.603 E6.44644
G1 X-33.723 Y-17.232 E6.53153
G1 X-32.623 Y-17.793 E6.61661
G1 X-31.489 Y-18.284 E6.70170
G1 X-30.327 Y-18.702 E6.78678
G1 X-29.140 Y-19.047 E6.87187
G1 X-27.935 Y-19.316 E6.95695
G1 X-26.715 Y-19.509 E7.04204
G1 X-25.485 Y-19.626 E7.12712
G1 X-24.360 Y-19.661 E7.20461
G1 X-23.017 Y-19.626 E7.29716
G1 X-21.785 Y-19.509 E7.38236
G1 X-20.565 Y-19.316 E7.46745
G1 X-19.360 Y-19.047 E7.55253
G1 X-18.243 Y-18.722 E7.63264
G1 X-17.012 Y-18.284 E7.72261
G1 X-15.877 Y-17.793 E7.80778
G1 X-14.777 Y-17.232 E7.89287
G1 X-13.713 Y-16.603 E7.97795
G1 X-12.692 Y-15.909 E8.06303
G1 X-11.715 Y-15.152 E8.14812
G1 X-10.789 Y-14.335 E8.23321
G1 X-9.915 Y-13.461 E8.31829
G1 X-9.097 Y-12.533 E8.40349
G1 X-8.279 Y-11.467 E8.49604
G1 X-7.647 Y-10.537 E8.57353
G1 X-7.018 Y-9.473 E8.65861
G1 X-6.457 Y-8.373 E8.74370
G1 X-5.966 Y-7.239 E8.82879
G1 X-5.548 Y-6.077 E8.91387
G1 X-5.203 Y-4.890 E8.99896
G1 X-4.934 Y-3.685 E9.08404
G1 X-4.741 Y-2.465 E9.16913
G1 X-4.624 Y-1.235 E9.25421
G1 X-4.586 Y-0.000 E9.33929
G1 X-4.624 Y1.235 E9.42438
G1 X-4.741 Y2.465 E9.50946
G1 X-4.934 Y3.686 E9.59467
G1 X-5.234 Y4.996 E9.68721
G1 X-5.548 Y6.077 E9.76470
G1 X-5.966 Y7.239 E9.84979
G1 X-6.457 Y8.373 E9.93488
G1 X-7.018 Y9.473 E10.01996
G1 X-7.647 Y10.537 E10.10505
G1 X-8.341 Y11.558 E10.19013
G1 X-9.098 Y12.535 E10.27522
G1 X-9.915 Y13.461 E10.36030
G1 X-10.789 Y14.335 E10.44538
G1 X-11.715 Y15.152 E10.53047
G1 X-12.692 Y15.909 E10.61556
G1 X-13.713 Y16.603 E10.70064
G1 X-14.777 Y17.232 E10.78572
G1 X-15.877 Y17.793 E10.87081
G1 X-17.011 Y18.284 E10.95590
G1 X-18.173 Y18.702 E11.04098
G1 X-19.360 Y19.047 E11.12606
G1 X-20.565 Y19.316 E11.21115
G1 X-21.785 Y19.509 E11.29624
G1 X-23.015 Y19.626 E11.38132
G1 X-24.250 Y19.664 E11.46640
G1 X-25.485 Y19.626 E11.55149
G1 X-26.715 Y19.509 E11.63657
G1 X-27.935 Y19.316 E11.72166
G1 X-29.140 Y19.047 E11.80674
G1 X-30.327 Y18.702 E11.89183
G1 X-31.489 Y18.284 E11.97691
G1 X-32.623 Y17.793 E12.06200
G1 X-33.723 Y17.232 E12.14709
G1 X-34.787 Y16.603 E12.23217
G1 X-35.808 Y15.909 E12.31725
G1 X-36.785 Y15.152 E12.40234
G1 X-37.711 Y14.335 E12.48743
G1 X-38.585 Y13.461 E12.57251
G1 X-39.403 Y12.533 E12.65771
G1 X-40.221 Y11.467 E12.75026
G1 X-40.853 Y10.537 E12.82775
G1 X-41.482 Y9.473 E12.91283
G1 X-42.043 Y8.373 E12.99792
G1 X-42.534 Y7.238 E13.08309
G1 X-42.972 Y6.007 E13.17306
G1 X-43.297 Y4.890 E13.25317
G1 X-43.567 Y3.683 E13.33837
G1 X-43.770 Y2.355 E13.43092
G1 X-43.870 Y1.294 E13.50428
G1 X-43.462 Y1.209 F6600.000
G1 F1200
G1 X-43.500 Y0.000 E13.58757
G1 X-43.462 Y-1.209 E13.67086
G1 X-43.348 Y-2.413 E13.75415
G1 X-43.159 Y-3.607 E13.83744
G1 X-42.895 Y-4.787 E13.92074
G1 X-42.558 Y-5.949 E14.00403
G1 X-42.148 Y-7.086 E14.08732
G1 X-41.668 Y-8.196 E14.17061
G1 X-41.119 Y-9.274 E14.25390
G1 X-40.503 Y-10.315 E14.33720
G1 X-39.824 Y-11.315 E14.42049
G1 X-39.083 Y-12.271 E14.50378
G1 X-38.283 Y-13.178 E14.58707
G1 X-37.428 Y-14.033 E14.67036
G1 X-36.521 Y-14.833 E14.75366
G1 X-35.565 Y-15.574 E14.83695
G1 X-34.565 Y-16.253 E14.92024
G1 X-33.524 Y-16.869 E15.00353
G1 X-32.446 Y-17.418 E15.08682
G1 X-31.336 Y-17.898 E15.17012
G1 X-30.199 Y-18.308 E15.25341
G1 X-29.037 Y-18.645 E15.33670
G1 X-27.857 Y-18.909 E15.41999
G1 X-26.663 Y-19.098 E15.50328
G1 X-25.459 Y-19.212 E15.58658
G1 X-24.359 Y-19.247 E15.66235
G1 X-23.042 Y-19.212 E15.75310
G1 X-21.837 Y-19.098 E15.83644
G1 X-20.643 Y-18.909 E15.91973
G1 X-19.463 Y-18.645 E16.00302
G1 X-18.370 Y-18.328 E16.08139
G1 X-17.164 Y-17.899 E16.16957
G1 X-16.054 Y-17.418 E16.25289
G1 X-14.976 Y-16.869 E16.33618
G1 X-13.935 Y-16.253 E16.41947
G1 X-12.935 Y-15.574 E16.50277
G1 X-11.979 Y-14.833 E16.58606
G1 X-11.072 Y-14.033 E16.66935
G1 X-10.217 Y-13.178 E16.75264
G1 X-9.417 Y-12.270 E16.83598
G1 X-8.615 Y-11.225 E16.92673
G1 X-7.997 Y-10.315 E17.00250
G1 X-7.381 Y-9.274 E17.08580
G1 X-6.832 Y-8.196 E17.16909
G1 X-6.352 Y-7.086 E17.25238
G1 X-5.942 Y-5.949 E17.33567
G1 X-5.605 Y-4.787 E17.41897
G1 X-5.341 Y-3.607 E17.50226
G1 X-5.152 Y-2.413 E17.58555
G1 X-5.038 Y-1.209 E17.66884
G1 X-5.000 Y-0.000 E17.75213
G1 X-5.038 Y1.209 E17.83543
G1 X-5.152 Y2.413 E17.91872
G1 X-5.341 Y3.608 E18.00205
G1 X-5.635 Y4.892 E18.09281
G1 X-5.942 Y5.949 E18.16858
G1 X-6.352 Y7.086 E18.25187
G1 X-6.832 Y8.196 E18.33517
G1 X-7.381 Y9.274 E18.41846
G1 X-7.997 Y10.315 E18.50175
G1 X-8.676 Y11.315 E18.58504
G1 X-9.417 Y12.271 E18.66833
G1 X-10.217 Y13.178 E18.75163
G1 X-11.072 Y14.033 E18.83492
G1 X-11.979 Y14.833 E18.91821
G1 X-12.935 Y15.574 E19.00150
G1 X-13.935 Y16.253 E19.08479
G1 X-14.976 Y16.869 E19.16808
G1 X-16.054 Y17.418 E19.25138
G1 X-17.164 Y17.898 E19.33467
G1 X-18.301 Y18.308 E19.41796
G1 X-19.463 Y18.645 E19.50125
G1 X-20.643 Y18.909 E19.58455
G1 X-21.837 Y19.098 E19.66784
G1 X-23.041 Y19.212 E19.75113
G1 X-24.250 Y19.250 E19.83442
G1 X-25.459 Y19.212 E19.91771
G1 X-26.663 Y19.098 E20.00100
G1 X-27.857 Y18.909 E20.08430
G1 X-29.037 Y18.645 E20.16759
G1 X-30.199 Y18.308 E20.25088
G1 X-31.336 Y17.898 E20.33417
G1 X-32.446 Y17.418 E20.41747
G1 X-33.524 Y16.869 E20.50076
G1 X-34.565 Y16.253 E20.58405
G1 X-35.565 Y15.574 E20.66734
G1 X-36.521 Y14.833 E20.75063
G1 X-37.428 Y14.033 E20.83393
G1 X-38.283 Y13.178 E20.91722
G1 X-39.083 Y12.270 E21.00055
G1 X-39.885 Y11.225 E21.09131
G1 X-40.503 Y10.315 E21.16708
G1 X-41.119 Y9.274 E21.25037
G1 X-41.668 Y8.196 E21.33366
G1 X-42.149 Y7.086 E21.41699
G1 X-42.578 Y5.880 E21.50516
G1 X-42.895 Y4.787 E21.58353
G1 X-43.159 Y3.606 E21.66687
G1 X-43.359 Y2.304 E21.75762
G1 X-43.456 Y1.268 E21.82926
G1 X-43.820 Y1.031 F6600.000
G1 F5280
G1 X-43.500 Y0.000 E21.00716
G1 F5280
G1 X-43.462 Y-1.209 E20.22385
G1 F5280
G1 X-43.348 Y-2.413 E19.44055
G1 F5280
G1 X-43.159 Y-3.607 E18.65723
G1 F5280
G1 X-42.895 Y-4.787 E17.87392
G1 F5280
G1 X-42.558 Y-5.949 E17.09061
G1 F5280
G1 X-42.552 Y-5.965 E17.07926
G1 E16.82926 F3600.00000
G92 E0
G1 Z0.900 F6600.000
G1 X-44.254 Y0.000 F6600.000
G1 X-37.515 Y15.060 F6600.000
G1 Z0.400 F6600.000
G1 E5.00000 F3600.00000
G1 F1200
G1 X-37.049 Y15.471 E5.04282
G1 X-36.052 Y16.244 E5.12970
G1 X-35.009 Y16.953 E5.21657
G1 X-33.923 Y17.595 E5.30345
G1 X-32.799 Y18.168 E5.39032
G1 X-31.642 Y18.669 E5.47720
G1 X-30.455 Y19.096 E5.56408
G1 X-29.243 Y19.448 E5.65096
G1 X-28.012 Y19.723 E5.73784
G1 X-26.767 Y19.921 E5.82472
G1 X-25.511 Y20.039 E5.91159
G1 X-24.250 Y20.079 E5.99847
G1 X-22.989 Y20.039 E6.08535
G1 X-21.733 Y19.921 E6.17223
G1 X-20.488 Y19.723 E6.25910
G1 X-19.257 Y19.448 E6.34598
G1 X-18.045 Y19.096 E6.43286
G1 X-16.858 Y18.669 E6.51974
G1 X-15.701 Y18.168 E6.60662
G1 X-14.577 Y17.595 E6.69350
G1 X-13.491 Y16.953 E6.78037
G1 X-12.448 Y16.244 E6.86725
G1 X-11.451 Y15.471 E6.95413
G1 X-11.175 Y15.228 E6.97947
G1 X-11.018 Y15.328 E6.99232
G1 X-11.053 Y15.449 E7.00104
G1 X-11.103 Y15.980 E7.03776
G1 X-11.053 Y16.511 E7.07449
G1 X-10.904 Y17.023 E7.11121
G1 X-10.670 Y17.483 E7.14677
G1 X-10.451 Y17.784 E7.17237
G1 X-10.205 Y18.047 E7.19719
G1 X-9.790 Y18.371 E7.23349
G1 X-9.313 Y18.614 E7.27036
G1 X-8.801 Y18.763 E7.30708
G1 X-8.270 Y18.813 E7.34381
G1 X-7.739 Y18.763 E7.38053
G1 X-7.227 Y18.614 E7.41726
G1 X-6.752 Y18.372 E7.45398
G1 X-6.344 Y18.056 E7.48955
G1 X-6.089 Y17.784 E7.51520
G1 X-5.870 Y17.483 E7.54085
G1 X-5.636 Y17.023 E7.57640
G1 X-5.487 Y16.511 E7.61313
G1 X-5.437 Y15.980 E7.64985
G1 X-5.487 Y15.449 E7.68658
G1 X-5.636 Y14.937 E7.72330
G1 X-5.870 Y14.477 E7.75886
G1 X-6.089 Y14.176 E7.78451
G1 X-6.344 Y13.904 E7.81016
G1 X-6.752 Y13.588 E7.84573
G1 X-7.227 Y13.346 E7.88245
G1 X-7.741 Y13.196 E7.91931
G1 X-8.266 Y13.149 E7.95560
G1 X-8.626 Y13.172 E7.98043
G1 X-8.936 Y13.231 E8.00222
G1 X-9.024 Y13.077 E8.01445
G1 X-8.779 Y12.799 E8.04001
G1 X-8.006 Y11.802 E8.12689
G1 X-7.297 Y10.759 E8.21376
G1 X-6.655 Y9.673 E8.30064
G1 X-6.082 Y8.549 E8.38751
G1 X-5.581 Y7.392 E8.47439
G1 X-5.154 Y6.205 E8.56127
G1 X-4.833 Y5.100 E8.64048
G1 X-4.527 Y3.765 E8.73482
G1 X-4.329 Y2.517 E8.82189
G1 X-4.211 Y1.261 E8.90877
G1 X-4.171 Y-0.000 E8.99565
G1 X-4.211 Y-1.261 E9.08252
G1 X-4.329 Y-2.517 E9.16940
G1 X-4.527 Y-3.762 E9.25628
G1 X-4.802 Y-4.993 E9.34316
G1 X-5.154 Y-6.205 E9.43004
G1 X-5.581 Y-7.392 E9.51691
G1 X-6.082 Y-8.549 E9.60380
G1 X-6.655 Y-9.673 E9.69067
G1 X-7.297 Y-10.759 E9.77755
G1 X-7.943 Y-11.710 E9.85675
G1 X-8.777 Y-12.797 E9.95110
G1 X-9.022 Y-13.075 E9.97664
G1 X-8.922 Y-13.232 E9.98949
G1 X-8.801 Y-13.197 E9.99820
G1 X-8.270 Y-13.147 E10.03493
G1 X-7.739 Y-13.197 E10.07165
G1 X-7.227 Y-13.346 E10.10838
G1 X-6.752 Y-13.588 E10.14510
G1 X-6.344 Y-13.904 E10.18066
G1 X-6.089 Y-14.176 E10.20631
G1 X-5.870 Y-14.477 E10.23197
G1 X-5.636 Y-14.937 E10.26752
G1 X-5.487 Y-15.449 E10.30425
G1 X-5.437 Y-15.980 E10.34097
G1 X-5.487 Y-16.511 E10.37770
G1 X-5.636 Y-17.023 E10.41442
G1 X-5.870 Y-17.483 E10.44998
G1 X-6.089 Y-17.784 E10.47563
G1 X-6.344 Y-18.056 E10.50128
G1 X-6.752 Y-18.372 E10.53684
G1 X-7.227 Y-18.614 E10.57357
G1 X-7.741 Y-18.764 E10.61043
G1 X-8.266 Y-18.811 E10.64672
G1 X-8.626 Y-18.788 E10.67155
G1 X-8.991 Y-18.718 E10.69715
G1 X-9.476 Y-18.543 E10.73270
G1 X-9.935 Y-18.272 E10.76941
G1 X-10.335 Y-17.919 E10.80615
G1 X-10.662 Y-17.498 E10.84289
G1 X-10.904 Y-17.023 E10.87961
G1 X-11.053 Y-16.511 E10.91634
G1 X-11.103 Y-15.980 E10.95306
G1 X-11.053 Y-15.449 E10.98979
G1 X-11.018 Y-15.328 E10.99850
G1 X-11.175 Y-15.228 E11.01135
G1 X-11.451 Y-15.471 E11.03670
G1 X-12.448 Y-16.244 E11.12358
G1 X-13.491 Y-16.953 E11.21045
G1 X-14.577 Y-17.595 E11.29733
G1 X-15.701 Y-18.168 E11.38421
G1 X-16.860 Y-18.670 E11.47122
G1 X-18.115 Y-19.117 E11.56298
G1 X-19.257 Y-19.448 E11.64483
G1 X-20.488 Y-19.723 E11.73171
G1 X-21.733 Y-19.921 E11.81859
G1 X-22.992 Y-20.039 E11.90566
G1 X-24.361 Y-20.075 E12.00000
G1 X-25.511 Y-20.039 E12.07921
G1 X-26.767 Y-19.921 E12.16608
G1 X-28.012 Y-19.723 E12.25296
G1 X-29.243 Y-19.448 E12.33984
G1 X-30.455 Y-19.096 E12.42672
G1 X-31.642 Y-18.669 E12.51360
G1 X-32.799 Y-18.168 E12.60048
G1 X-33.923 Y-17.595 E12.68736
G1 X-35.009 Y-16.953 E12.77423
G1 X-36.052 Y-16.244 E12.86111
G1 X-37.049 Y-15.471 E12.94799
G1 X-37.325 Y-15.228 E12.97333
G1 X-37.482 Y-15.328 E12.98618
G1 X-37.447 Y-15.449 E12.99490
G1 X-37.397 Y-15.980 E13.03162
G1 X-37.447 Y-16.511 E13.06835
G1 X-37.596 Y-17.023 E13.10507
G1 X-37.830 Y-17.483 E13.14063
G1 X-38.049 Y-17.784 E13.16628
G1 X-38.304 Y-18.056 E13.19193
