; generated by Slic3r 1.3.1-dev (Build b582df12363b11c5b5e1a4337ffac850e4543f71) on 2019-07-04 at 10:09:38

; external perimeters extrusion width = 0.45mm (2.65mm^3/s)
; perimeters extrusion width = 0.45mm (4.07mm^3/s)
; infill extrusion width = 0.45mm (4.88mm^3/s)
; solid infill extrusion width = 0.42mm (3.02mm^3/s)
; top infill extrusion width = 0.42mm (1.51mm^3/s)

M107
; Monoprice Mini Delta
M140 S55 ; set bed temp
M190 S55 ; wait for bed temp
M104 S200 T0 ; set extruder temp
M109 S200 T0 ; wait for extruder temp
G92 E0 ; reset extrusion distance
G28 ; Start from home position
G1 E-6 F900 ; retract 6mm of filament before starting the bed leveling process
G92 E0 ; reset extrusion distance
G4 S5 ; Pause for 5 seconds to allow time for removing extruded filament
;G29
G29 P6 Z0.45 ;If your first layer is too far from the bed then lower the Z number, if it is to close, then raise it.
G1 Z60 ; raise Z 60mm to prepare for priming the nozzle
G1 E20 F300 ; extrude 20mm of filament to help prime the nozzle just prior to the start of the print
G92 E0 ; reset extrusion distance
G4 S10 ; Pause for 10 seconds to allow time for cleaniing the nozzle and build plate if needed
G92 E0
;Put printing message on LCD screen
M117 Printing...
; Filament gcode

G21 ; set units to millimeters
G90 ; use absolute coordinates
M82 ; use absolute distances for extrusion
G92 E0
G92 E0
G1 Z0.400 F6600.000
G1 E-5.00000 F3600.00000
G92 E0
G1 Z0.900 F6600.000
G1 X-41.172 Y-22.484 F6600.000
G1 Z0.400 F6600.000
G1 E5.00000 F3600.00000
G1 F1200
G1 X-39.569 Y-25.201 E5.21727
G1 X-37.909 Y-27.636 E5.42025
G1 X-36.195 Y-29.845 E5.61280
G1 X-34.146 Y-32.169 E5.82622
G1 X-32.059 Y-34.250 E6.02920
G1 X-29.962 Y-36.099 E6.22174
G1 X-27.513 Y-37.998 E6.43518
G1 X-25.201 Y-39.569 E6.62772
G1 X-22.667 Y-41.074 E6.83071
G1 X-19.906 Y-42.480 E7.04412
G1 X-17.199 Y-43.647 E7.24711
G1 X-14.425 Y-44.640 E7.45009
G1 X-11.740 Y-45.420 E7.64264
G1 X-8.865 Y-46.068 E7.84563
G1 X-5.805 Y-46.553 E8.05905
G1 X-2.870 Y-46.825 E8.26203
G1 X-0.076 Y-46.913 E8.45458
G1 X3.021 Y-46.816 E8.66800
G1 X5.955 Y-46.534 E8.87099
G1 X8.716 Y-46.096 E9.06353
G1 X11.740 Y-45.420 E9.27696
G1 X14.569 Y-44.593 E9.47994
G1 X17.340 Y-43.591 E9.68292
G1 X19.906 Y-42.480 E9.87547
G1 X22.534 Y-41.147 E10.07846
G1 X25.201 Y-39.569 E10.29188
G1 X27.636 Y-37.909 E10.49486
G1 X29.845 Y-36.195 E10.68741
G1 X32.059 Y-34.250 E10.89039
G1 X34.107 Y-32.209 E11.08953
G1 X36.195 Y-29.845 E11.30679
G1 X37.909 Y-27.636 E11.49934
G1 X39.569 Y-25.201 E11.70233
G1 X41.147 Y-22.534 E11.91575
G1 X42.416 Y-20.043 E12.10829
G1 X43.591 Y-17.340 E12.31128
G1 X44.640 Y-14.425 E12.52469
G1 X45.420 Y-11.740 E12.71724
G1 X46.068 Y-8.865 E12.92024
G1 X46.553 Y-5.805 E13.13365
G1 X46.816 Y-3.021 E13.32620
G1 X46.913 Y-0.076 E13.52918
G1 X46.816 Y3.021 E13.74261
G1 X46.553 Y5.805 E13.93516
G1 X46.096 Y8.716 E14.13814
G1 X45.420 Y11.740 E14.35157
G1 X44.593 Y14.569 E14.55455
G1 X43.591 Y17.340 E14.75753
G1 X42.480 Y19.906 E14.95009
G1 X41.147 Y22.534 E15.15306
G1 X39.569 Y25.201 E15.36649
G1 X37.998 Y27.513 E15.55903
G1 X36.195 Y29.845 E15.76202
G1 X34.146 Y32.169 E15.97544
G1 X32.059 Y34.250 E16.17842
G1 X29.845 Y36.195 E16.38140
G1 X27.636 Y37.909 E16.57396
G1 X25.201 Y39.569 E16.77694
G1 X22.534 Y41.147 E16.99036
G1 X19.906 Y42.480 E17.19334
G1 X17.340 Y43.591 E17.38589
G1 X14.425 Y44.640 E17.59931
G1 X11.740 Y45.420 E17.79186
G1 X8.865 Y46.068 E17.99485
G1 X5.805 Y46.553 E18.20826
G1 X3.021 Y46.816 E18.40081
G1 X0.076 Y46.913 E18.60380
G1 X-3.021 Y46.816 E18.81722
G1 X-5.955 Y46.534 E19.02020
G1 X-8.716 Y46.096 E19.21275
G1 X-11.740 Y45.420 E19.42618
G1 X-14.569 Y44.593 E19.62916
G1 X-17.340 Y43.591 E19.83214
G1 X-19.906 Y42.480 E20.02469
G1 X-22.534 Y41.147 E20.22768
G1 X-25.201 Y39.569 E20.44109
G1 X-27.636 Y37.909 E20.64408
G1 X-29.845 Y36.195 E20.83663
G1 X-32.169 Y34.146 E21.05005
G1 X-34.250 Y32.059 E21.25304
G1 X-36.195 Y29.845 E21.45602
G1 X-37.909 Y27.636 E21.64857
G1 X-39.569 Y25.201 E21.85155
G1 X-41.147 Y22.534 E22.06497
G1 X-42.416 Y20.043 E22.25752
G1 X-43.591 Y17.340 E22.46051
G1 X-44.640 Y14.425 E22.67392
G1 X-45.420 Y11.740 E22.86647
G1 X-46.068 Y8.865 E23.06946
G1 X-46.553 Y5.805 E23.28288
G1 X-46.816 Y3.021 E23.47543
G1 X-46.913 Y0.076 E23.67842
G1 X-46.816 Y-3.021 E23.89184
G1 X-46.553 Y-5.805 E24.08438
G1 X-46.096 Y-8.716 E24.28736
G1 X-45.420 Y-11.740 E24.50079
G1 X-44.640 Y-14.425 E24.69334
G1 X-43.647 Y-17.199 E24.89632
G1 X-42.480 Y-19.906 E25.09931
G1 X-41.199 Y-22.431 E25.29431
G1 F5280
G1 X-41.172 Y-22.484 E25.25544
G1 F5280
G1 X-41.147 Y-22.534 E25.21923
G1 F5280
G1 X-41.074 Y-22.667 E25.12107
G1 F5280
G1 X-39.651 Y-25.073 E23.31030
G1 F5280
G1 X-39.569 Y-25.201 E23.21203
G1 F5280
G1 X-37.998 Y-27.513 E21.40131
G1 F5280
G1 X-37.909 Y-27.636 E21.30306
G1 F5280
G1 X-37.191 Y-28.562 E20.54431
G1 E20.29431 F3600.00000
G92 E0
G1 Z0.900 F6600.000
G1 X-15.787 Y21.671 F6600.000
G1 Z0.400 F6600.000
G1 E5.00000 F3600.00000
G1 F1200
G1 X-15.336 Y21.322 E5.03928
G1 X-14.865 Y21.001 E5.07857
G1 X-14.374 Y20.711 E5.11786
G1 X-13.866 Y20.452 E5.15714
G1 X-13.342 Y20.225 E5.19641
G1 X-12.806 Y20.032 E5.23570
G1 X-12.258 Y19.873 E5.27498
G1 X-11.701 Y19.749 E5.31426
G1 X-11.138 Y19.659 E5.35355
G1 X-10.570 Y19.606 E5.39284
G1 X-10.017 Y19.588 E5.43094
G1 X10.017 Y19.588 E6.81078
G1 X10.570 Y19.606 E6.84888
G1 X11.138 Y19.659 E6.88817
G1 X11.701 Y19.749 E6.92747
G1 X12.258 Y19.873 E6.96674
G1 X12.771 Y20.022 E7.00357
G1 X13.340 Y20.225 E7.04516
G1 X13.866 Y20.452 E7.08458
G1 X14.374 Y20.711 E7.12386
G1 X14.865 Y21.001 E7.16314
G1 X15.336 Y21.322 E7.20243
G1 X15.787 Y21.671 E7.24172
G1 X16.215 Y22.048 E7.28100
G1 X16.618 Y22.452 E7.32028
G1 X16.995 Y22.880 E7.35956
G1 X17.345 Y23.330 E7.39885
G1 X17.665 Y23.802 E7.43812
G1 X17.957 Y24.295 E7.47755
G1 X18.229 Y24.834 E7.51914
G1 X18.441 Y25.325 E7.55597
G1 X18.635 Y25.861 E7.59525
G1 X18.794 Y26.409 E7.63454
G1 X18.918 Y26.966 E7.67382
G1 X19.007 Y27.529 E7.71310
G1 X19.061 Y28.097 E7.75238
G1 X19.079 Y28.669 E7.79182
G1 X19.058 Y29.272 E7.83340
G1 X19.007 Y29.804 E7.87022
G1 X18.918 Y30.368 E7.90950
G1 X18.794 Y30.924 E7.94879
G1 X18.635 Y31.472 E7.98808
G1 X18.441 Y32.009 E8.02737
G1 X18.215 Y32.532 E8.06664
G1 X17.956 Y33.040 E8.10592
G1 X17.665 Y33.531 E8.14522
G1 X17.345 Y34.003 E8.18449
G1 X16.995 Y34.454 E8.22377
G1 X16.618 Y34.882 E8.26306
G1 X16.215 Y35.285 E8.30233
G1 X15.787 Y35.662 E8.34162
G1 X15.336 Y36.012 E8.38090
G1 X14.865 Y36.332 E8.42019
G1 X14.374 Y36.623 E8.45947
G1 X13.866 Y36.881 E8.49875
G1 X13.375 Y37.094 E8.53558
G1 X12.807 Y37.301 E8.57717
G1 X12.258 Y37.460 E8.61659
G1 X11.701 Y37.585 E8.65587
G1 X11.138 Y37.674 E8.69516
G1 X10.570 Y37.728 E8.73444
G1 X10.017 Y37.745 E8.77256
G1 X-10.017 Y37.745 E10.15239
G1 X-10.570 Y37.728 E10.19050
G1 X-11.138 Y37.674 E10.22979
G1 X-11.701 Y37.585 E10.26908
G1 X-12.258 Y37.460 E10.30836
G1 X-12.805 Y37.301 E10.34763
G1 X-13.342 Y37.108 E10.38692
G1 X-13.866 Y36.881 E10.42620
G1 X-14.374 Y36.623 E10.46548
G1 X-14.865 Y36.332 E10.50476
G1 X-15.336 Y36.012 E10.54405
G1 X-15.787 Y35.662 E10.58333
G1 X-16.215 Y35.285 E10.62262
G1 X-16.618 Y34.882 E10.66190
G1 X-16.995 Y34.454 E10.70118
G1 X-17.345 Y34.003 E10.74047
G1 X-17.665 Y33.531 E10.77973
G1 X-17.956 Y33.040 E10.81903
G1 X-18.215 Y32.532 E10.85831
G1 X-18.441 Y32.009 E10.89758
G1 X-18.635 Y31.472 E10.93687
G1 X-18.794 Y30.924 E10.97616
G1 X-18.918 Y30.368 E11.01545
G1 X-19.007 Y29.804 E11.05473
G1 X-19.061 Y29.237 E11.09400
G1 X-19.079 Y28.667 E11.13329
G1 X-19.061 Y28.097 E11.17258
G1 X-19.007 Y27.529 E11.21185
G1 X-18.918 Y26.966 E11.25113
G1 X-18.794 Y26.409 E11.29042
G1 X-18.635 Y25.861 E11.32971
G1 X-18.441 Y25.324 E11.36899
G1 X-18.215 Y24.801 E11.40826
G1 X-17.956 Y24.293 E11.44755
G1 X-17.665 Y23.802 E11.48684
G1 X-17.345 Y23.330 E11.52611
G1 X-16.995 Y22.880 E11.56540
G1 X-16.618 Y22.452 E11.60468
G1 X-16.215 Y22.048 E11.64396
G1 X-15.832 Y21.711 E11.67911
G1 X-15.523 Y21.991 F6600.000
G1 F1200
G1 X-15.093 Y21.657 E11.71660
G1 X-14.643 Y21.351 E11.75410
G1 X-14.174 Y21.074 E11.79159
G1 X-13.689 Y20.827 E11.82907
G1 X-13.190 Y20.611 E11.86656
G1 X-12.677 Y20.426 E11.90405
G1 X-12.155 Y20.274 E11.94154
G1 X-11.624 Y20.156 E11.97902
G1 X-11.086 Y20.070 E12.01652
G1 X-10.544 Y20.019 E12.05402
G1 X-10.010 Y20.003 E12.09078
G1 X10.010 Y20.003 E13.46972
G1 X10.544 Y20.019 E13.50648
G1 X11.086 Y20.070 E13.54398
G1 X11.624 Y20.156 E13.58147
G1 X12.155 Y20.274 E13.61895
G1 X12.644 Y20.417 E13.65405
G1 X13.188 Y20.610 E13.69385
G1 X13.689 Y20.827 E13.73142
G1 X14.174 Y21.074 E13.76891
G1 X14.643 Y21.351 E13.80640
G1 X15.093 Y21.657 E13.84389
G1 X15.523 Y21.991 E13.88138
G1 X15.931 Y22.351 E13.91887
G1 X16.316 Y22.735 E13.95636
G1 X16.676 Y23.144 E13.99385
G1 X17.010 Y23.574 E14.03134
G1 X17.316 Y24.024 E14.06883
G1 X17.593 Y24.494 E14.10641
G1 X17.854 Y25.009 E14.14620
G1 X18.056 Y25.477 E14.18129
G1 X18.240 Y25.989 E14.21878
G1 X18.392 Y26.512 E14.25627
G1 X18.511 Y27.043 E14.29377
G1 X18.596 Y27.581 E14.33125
G1 X18.647 Y28.123 E14.36874
G1 X18.665 Y28.668 E14.40633
G1 X18.644 Y29.245 E14.44612
G1 X18.596 Y29.753 E14.48121
G1 X18.511 Y30.290 E14.51869
G1 X18.392 Y30.821 E14.55619
G1 X18.240 Y31.344 E14.59368
G1 X18.056 Y31.856 E14.63117
G1 X17.840 Y32.356 E14.66866
G1 X17.593 Y32.841 E14.70615
G1 X17.316 Y33.309 E14.74364
G1 X17.010 Y33.759 E14.78112
G1 X16.676 Y34.190 E14.81862
G1 X16.316 Y34.598 E14.85611
G1 X15.931 Y34.983 E14.89359
G1 X15.523 Y35.343 E14.93109
G1 X15.093 Y35.676 E14.96858
G1 X14.643 Y35.982 E15.00607
G1 X14.174 Y36.259 E15.04356
G1 X13.689 Y36.507 E15.08105
G1 X13.222 Y36.709 E15.11614
G1 X12.679 Y36.907 E15.15594
G1 X12.155 Y37.059 E15.19351
G1 X11.624 Y37.178 E15.23099
G1 X11.086 Y37.263 E15.26849
G1 X10.544 Y37.314 E15.30598
G1 X10.010 Y37.331 E15.34275
G1 X-10.010 Y37.331 E16.72169
G1 X-10.544 Y37.314 E16.75846
G1 X-11.086 Y37.263 E16.79595
G1 X-11.624 Y37.178 E16.83344
G1 X-12.155 Y37.059 E16.87093
G1 X-12.677 Y36.907 E16.90841
G1 X-13.190 Y36.723 E16.94590
G1 X-13.689 Y36.507 E16.98340
G1 X-14.174 Y36.259 E17.02088
G1 X-14.643 Y35.982 E17.05837
G1 X-15.093 Y35.676 E17.09587
G1 X-15.523 Y35.343 E17.13336
G1 X-15.931 Y34.983 E17.17085
G1 X-16.316 Y34.598 E17.20833
G1 X-16.676 Y34.190 E17.24582
G1 X-17.010 Y33.759 E17.28332
G1 X-17.316 Y33.309 E17.32080
G1 X-17.593 Y32.841 E17.35830
G1 X-17.840 Y32.356 E17.39578
G1 X-18.056 Y31.856 E17.43327
G1 X-18.240 Y31.344 E17.47076
G1 X-18.392 Y30.821 E17.50825
G1 X-18.511 Y30.290 E17.54575
G1 X-18.596 Y29.753 E17.58324
G1 X-18.647 Y29.211 E17.62072
G1 X-18.664 Y28.667 E17.65821
G1 X-18.647 Y28.123 E17.69571
G1 X-18.596 Y27.581 E17.73319
G1 X-18.511 Y27.043 E17.77068
G1 X-18.392 Y26.512 E17.80817
G1 X-18.240 Y25.989 E17.84566
G1 X-18.056 Y25.477 E17.88315
G1 X-17.840 Y24.978 E17.92064
G1 X-17.593 Y24.492 E17.95813
G1 X-17.316 Y24.024 E17.99562
G1 X-17.010 Y23.574 E18.03311
G1 X-16.676 Y23.144 E18.07060
G1 X-16.316 Y22.735 E18.10809
G1 X-15.931 Y22.351 E18.14558
G1 X-15.568 Y22.030 E18.17893
G1 X-15.259 Y22.310 F6600.000
G1 F1200
G1 X-14.849 Y21.992 E18.21463
G1 X-14.421 Y21.701 E18.25033
G1 X-13.974 Y21.437 E18.28603
G1 X-13.513 Y21.202 E18.32172
G1 X-13.037 Y20.996 E18.35742
G1 X-12.549 Y20.820 E18.39312
G1 X-12.052 Y20.676 E18.42882
G1 X-11.546 Y20.563 E18.46451
G1 X-11.034 Y20.482 E18.50021
G1 X-10.518 Y20.433 E18.53591
G1 X-10.004 Y20.417 E18.57133
G1 X10.004 Y20.417 E19.94937
G1 X10.518 Y20.433 E19.98479
G1 X11.034 Y20.482 E20.02050
G1 X11.546 Y20.563 E20.05620
G1 X12.052 Y20.676 E20.09189
G1 X12.517 Y20.811 E20.12524
G1 X13.037 Y20.996 E20.16325
G1 X13.513 Y21.202 E20.19897
G1 X13.974 Y21.437 E20.23467
G1 X14.421 Y21.701 E20.27036
G1 X14.849 Y21.992 E20.30607
G1 X15.259 Y22.310 E20.34176
G1 X15.648 Y22.653 E20.37746
G1 X16.014 Y23.019 E20.41315
G1 X16.357 Y23.408 E20.44885
G1 X16.674 Y23.817 E20.48455
G1 X16.966 Y24.246 E20.52025
G1 X17.230 Y24.693 E20.55597
G1 X17.478 Y25.185 E20.59398
G1 X17.671 Y25.630 E20.62733
G1 X17.846 Y26.117 E20.66303
G1 X17.991 Y26.615 E20.69872
G1 X18.104 Y27.121 E20.73442
G1 X18.185 Y27.633 E20.77012
G1 X18.234 Y28.149 E20.80581
G1 X18.250 Y28.667 E20.84155
G1 X18.231 Y29.219 E20.87955
G1 X18.185 Y29.701 E20.91290
G1 X18.104 Y30.213 E20.94860
G1 X17.991 Y30.718 E20.98430
G1 X17.846 Y31.216 E21.01999
G1 X17.671 Y31.704 E21.05569
G1 X17.465 Y32.179 E21.09139
G1 X17.230 Y32.641 E21.12708
G1 X16.966 Y33.087 E21.16279
G1 X16.674 Y33.516 E21.19848
G1 X16.357 Y33.926 E21.23418
G1 X16.014 Y34.314 E21.26987
G1 X15.648 Y34.681 E21.30556
G1 X15.259 Y35.024 E21.34127
G1 X14.849 Y35.341 E21.37696
G1 X14.421 Y35.632 E21.41266
G1 X13.974 Y35.896 E21.44836
G1 X13.513 Y36.132 E21.48405
G1 X13.068 Y36.324 E21.51741
G1 X12.550 Y36.513 E21.55541
G1 X12.052 Y36.658 E21.59114
G1 X11.546 Y36.771 E21.62683
G1 X11.034 Y36.852 E21.66253
G1 X10.518 Y36.901 E21.69823
G1 X10.004 Y36.917 E21.73366
G1 X-10.004 Y36.917 E23.11170
G1 X-10.518 Y36.901 E23.14712
G1 X-11.034 Y36.852 E23.18282
G1 X-11.546 Y36.771 E23.21852
G1 X-12.052 Y36.658 E23.25421
G1 X-12.549 Y36.513 E23.28991
G1 X-13.037 Y36.337 E23.32561
G1 X-13.513 Y36.132 E23.36130
G1 X-13.974 Y35.896 E23.39700
G1 X-14.421 Y35.632 E23.43270
G1 X-14.849 Y35.341 E23.46840
G1 X-15.259 Y35.024 E23.50409
G1 X-15.648 Y34.681 E23.53979
G1 X-16.014 Y34.314 E23.57548
G1 X-16.357 Y33.926 E23.61118
G1 X-16.674 Y33.516 E23.64688
G1 X-16.966 Y33.087 E23.68257
G1 X-17.230 Y32.641 E23.71827
G1 X-17.465 Y32.179 E23.75397
G1 X-17.671 Y31.704 E23.78966
G1 X-17.846 Y31.216 E23.82536
G1 X-17.991 Y30.718 E23.86106
G1 X-18.104 Y30.213 E23.89676
G1 X-18.185 Y29.701 E23.93246
G1 X-18.234 Y29.185 E23.96815
G1 X-18.250 Y28.667 E24.00385
G1 X-18.234 Y28.149 E24.03955
G1 X-18.185 Y27.633 E24.07524
G1 X-18.104 Y27.121 E24.11094
G1 X-17.991 Y26.615 E24.14664
G1 X-17.846 Y26.117 E24.18233
G1 X-17.671 Y25.630 E24.21803
G1 X-17.465 Y25.154 E24.25373
G1 X-17.230 Y24.692 E24.28943
G1 X-16.966 Y24.246 E24.32512
G1 X-16.674 Y23.817 E24.36082
G1 X-16.357 Y23.408 E24.39651
G1 X-16.014 Y23.019 E24.43221
G1 X-15.648 Y22.653 E24.46791
G1 X-15.304 Y22.350 E24.49947
G1 X-15.326 Y21.915 F6600.000
G1 F5280
G1 X-14.849 Y21.992 E24.12495
G1 F5280
G1 X-14.421 Y21.701 E23.78921
G1 F5280
G1 X-13.974 Y21.437 E23.45350
G1 F5280
G1 X-13.513 Y21.202 E23.11781
G1 F5280
G1 X-13.037 Y20.996 E22.78214
G1 F5280
G1 X-12.549 Y20.820 E22.44639
G1 F5280
G1 X-12.052 Y20.676 E22.11069
G1 F5280
G1 X-11.546 Y20.563 E21.77504
G1 F5280
G1 X-11.034 Y20.482 E21.43930
G1 F5280
G1 X-10.518 Y20.433 E21.10355
G1 F5280
G1 X-10.004 Y20.417 E20.77042
G1 F5280
G1 X-8.428 Y20.417 E19.74947
G1 E19.49947 F3600.00000
G92 E0
G1 Z0.900 F6600.000
G1 X-13.075 Y5.228 F6600.000
G1 Z0.400 F6600.000
G1 E5.00000 F3600.00000
G1 F1200
G1 X-13.232 Y5.328 E5.01285
G1 X-13.197 Y5.449 E5.02156
G1 X-13.147 Y5.980 E5.05829
G1 X-13.197 Y6.511 E5.09502
G1 X-13.346 Y7.023 E5.13174
G1 X-13.580 Y7.483 E5.16730
G1 X-13.799 Y7.784 E5.19295
G1 X-14.054 Y8.056 E5.21860
G1 X-14.462 Y8.372 E5.25416
G1 X-14.937 Y8.614 E5.29089
G1 X-15.449 Y8.763 E5.32761
G1 X-15.980 Y8.813 E5.36434
G1 X-16.511 Y8.763 E5.40107
G1 X-17.023 Y8.614 E5.43779
G1 X-17.498 Y8.372 E5.47452
G1 X-17.906 Y8.056 E5.51008
G1 X-18.161 Y7.784 E5.53573
G1 X-18.380 Y7.483 E5.56138
G1 X-18.614 Y7.023 E5.59693
G1 X-18.763 Y6.511 E5.63366
G1 X-18.813 Y5.980 E5.67039
G1 X-18.763 Y5.449 E5.70711
G1 X-18.614 Y4.937 E5.74384
G1 X-18.372 Y4.462 E5.78056
G1 X-18.045 Y4.041 E5.81730
G1 X-17.645 Y3.688 E5.85402
G1 X-17.186 Y3.417 E5.89075
G1 X-16.701 Y3.242 E5.92630
G1 X-16.335 Y3.172 E5.95192
G1 X-15.972 Y3.149 E5.97696
G1 X-15.451 Y3.197 E6.01305
G1 X-15.328 Y3.232 E6.02187
G1 X-15.228 Y3.075 E6.03472
G1 X-15.471 Y2.799 E6.06007
G1 X-16.244 Y1.802 E6.14695
G1 X-16.953 Y0.759 E6.23382
G1 X-17.595 Y-0.327 E6.32070
G1 X-18.168 Y-1.451 E6.40758
G1 X-18.669 Y-2.608 E6.49446
G1 X-19.096 Y-3.795 E6.58134
G1 X-19.448 Y-5.007 E6.66821
G1 X-19.723 Y-6.238 E6.75509
G1 X-19.921 Y-7.483 E6.84197
G1 X-20.039 Y-8.739 E6.92885
G1 X-20.079 Y-10.000 E7.01573
G1 X-20.039 Y-11.261 E7.10260
G1 X-19.921 Y-12.516 E7.18948
G1 X-19.723 Y-13.762 E7.27636
